!!!!SEGMENT: pl-cz--ii-148--006_lessel-franciszek--msza-b-agnus-dei.krn
!!!cenid: 18xx:280
!!!COM: Lessel, Franciszek
!!!COM-rismid: pe30004332
!!!CDT: 1780-1838/12/26
!!!CNT: Polish
!!!OTL: Msza B - Agnus Dei
!!!PDT: 1813
!!!AGN: Sacred; Mass
!!!SMS-siglum: PL-CZ
!!!SMS-shelfmark: II-148
!!!SMS-shelfwork: 001-006 M
!!!NIFC-rismid:
!!!URL-scan: http://repozytorium.nifc.pl/skany/pl-cz-nut--ii-148
!!!ONB-nifc: UWAGA: części Mszy: Kyrie, Gloria, Credo, Offertorium, Sanctus, Agnus Dei
**kern	**fb	**dynam	**kern	**dynam	**kern	**text	**dynam	**kern	**text	**dynam	**kern	**text	**dynam	**kern	**text	**dynam	**kern	**dynam	**kern	**dynam	**kern	**dynam	**kern	**dynam	**kern	**dynam	**kern	**dynam	**kern	**dynam	**kern	**dynam	**kern	**dynam
*part15	*	*part15	*part14	*part14	*part13	*part13	*part13	*part12	*part12	*part12	*part11	*part11	*part11	*part10	*part10	*part10	*part9	*part9	*part8	*part8	*part7	*part7	*part6	*part6	*part5	*part5	*part4	*part4	*part3	*part3	*part2	*part2	*part1	*part1
*staff15	*	*	*staff14	*	*staff13	*staff13	*	*staff12	*staff12	*	*staff11	*staff11	*	*staff10	*staff10	*	*staff9	*	*staff8	*	*staff7	*	*staff6	*	*staff5	*	*staff4	*	*staff3	*	*staff2	*	*staff1	*
*I"Organo	*	*	*I"Baʃso e Violoncello	*	*I"Basso	*	*	*I"Tenore	*	*	*I"Alto	*	*	*I"Soprano	*	*	*I"Trombone di basso	*	*I"Trombone di tenore.	*	*I"Trombone di alto.	*	*I"Clarino 2do in B♭	*	*I"Clarino 1mo in B♭	*	*I"Corno 2do in B♭	*	*I"Corno 1mo in B♭	*	*I"Clarinetto 2do in B♭	*	*I"Clarinetto 1mo in B♭	*
*I'Org	*	*	*I'B e V-c.	*	*I'B	*	*	*I'T	*	*	*I'A	*	*	*I'S	*	*	*I'Tr-ne b.	*	*I'Tr-ne t.	*	*I'Tr-ne a.	*	*I'Cl-no 2 in B♭	*	*I'Cl-no 1 in B♭	*	*I'Cor 2 in B♭	*	*I'Cor 1 in B♭	*	*I'Cl 2 in B♭	*	*I'Cl 1 in B♭	*
*group5	*	*	*group4	*	*group3	*	*	*group3	*	*	*group3	*	*	*group3	*	*	*group2	*	*group2	*	*group2	*	*group2	*	*group2	*	*group2	*	*group2	*	*group1	*	*group1	*
*clefF4	*	*	*clefF4	*	*clefF4	*	*	*clefC4	*	*	*clefC3	*	*	*clefC1	*	*	*clefF4	*	*clefC4	*	*clefC3	*	*clefG2	*	*clefG2	*	*clefG2	*	*clefG2	*	*clefG2	*	*clefG2	*
*	*	*	*	*	*	*	*	*	*	*	*	*	*	*	*	*	*	*	*	*	*	*	*ITrd1c2	*	*ITrd1c2	*	*ITrd1c2	*	*ITrd1c2	*	*ITrd1c2	*	*ITrd1c2	*
*k[b-e-]	*	*	*k[b-e-]	*	*k[b-e-]	*	*	*k[b-e-]	*	*	*k[b-e-]	*	*	*k[b-e-]	*	*	*k[b-e-]	*	*k[b-e-]	*	*k[b-e-]	*	*k[b-e-]	*	*k[b-e-]	*	*k[b-e-]	*	*k[b-e-]	*	*k[b-e-]	*	*k[b-e-]	*
*B-:	*	*	*B-:	*	*B-:	*	*	*B-:	*	*	*B-:	*	*	*B-:	*	*	*B-:	*	*B-:	*	*B-:	*	*B-:	*	*B-:	*	*B-:	*	*B-:	*	*B-:	*	*B-:	*
*M2/2	*	*	*M2/2	*	*M2/2	*	*	*M2/2	*	*	*M2/2	*	*	*M2/2	*	*	*M2/2	*	*M2/2	*	*M2/2	*	*M2/2	*	*M2/2	*	*M2/2	*	*M2/2	*	*M2/2	*	*M2/2	*
*met(c|)	*	*	*met(c|)	*	*met(c|)	*	*	*met(c|)	*	*	*met(c|)	*	*	*met(c|)	*	*	*met(c|)	*	*met(c|)	*	*met(c|)	*	*met(c|)	*	*met(c|)	*	*met(c|)	*	*met(c|)	*	*met(c|)	*	*met(c|)	*
=1	=1	=1	=1	=1	=1	=1	=1	=1	=1	=1	=1	=1	=1	=1	=1	=1	=1	=1	=1	=1	=1	=1	=1	=1	=1	=1	=1	=1	=1	=1	=1	=1	=1	=1
*2\right	*	*	*2\right	*	*2\right	*	*	*2\right	*	*	*2\right	*	*	*2\right	*	*	*	*	*	*	*	*	*	*	*	*	*	*	*	*	*	*	*	*
!LO:TX:a:B:t=Adagio	!	!	!LO:TX:a:B:t=Adagio	!	!LO:TX:a:B:t=Adagio	!	!	!LO:TX:a:B:t=Adagio	!	!	!LO:TX:a:B:t=Adagio	!	!	!LO:TX:a:B:t=Adagio	!	!	!LO:TX:a:B:t=Adagio	!	!LO:TX:a:B:t=Adagio	!	!LO:TX:a:B:t=Adagio	!	!LO:TX:a:B:t=Adagio	!	!LO:TX:a:B:t=Adagio	!	!LO:TX:a:B:t=Adagio	!	!LO:TX:a:B:t=Adagio	!	!LO:TX:a:B:t=Adagio	!	!LO:TX:a:B:t=Adagio	!
!	!	!	!	!LO:DY:b	!	!	!	!LO:TX:a:t=1	!	!	!	!	!LO:DY:b	!	!	!LO:DY:b	!LO:TX:a:t=33	!	!LO:TX:a:t=33	!	!LO:TX:a:t=33	!	!LO:TX:a:t=33	!	!LO:TX:a:t=33	!	!LO:TX:a:t=19	!	!LO:TX:a:t=19	!	!LO:TX:a:t=6	!	!LO:TX:a:t=6	!
!	!	!LO:DY:b	!	!LO:DY:t=p.	!	!	!	!	!	!	!	!	!	!	!	!	!	!	!	!	!	!	!	!	!	!	!	!	!	!	!	!	!	!
2GG/	-	p	2GG/	p	2G\	Ba-	.	1r	.	.	2r	.	p	2g\	Ba-	p	1r	.	1r	.	1r	.	1r	.	1r	.	1r	.	1r	.	00r	.	00r	.
2G\	.	.	2G\	.	2G\	-ran-	.	.	.	.	2d\	Ba-	.	[2g\	-ran-	.	.	.	.	.	.	.	.	.	.	.	.	.	.	.	.	.	.	.
=2	=2	=2	=2	=2	=2	=2	=2	=2	=2	=2	=2	=2	=2	=2	=2	=2	=2	=2	=2	=2	=2	=2	=2	=2	=2	=2	=2	=2	=2	=2	=2	=2	=2	=2
2C\	.	.	2C\	.	2C\	.	.	2r	.	.	2.e-\	-ran-	.	2g\]	.	.	1r	.	1r	.	1r	.	1r	.	1r	.	1r	.	1r	.	.	.	.	.
*	*	*	*	*	*	*	*	*2\right	*	*	*	*	*	*	*	*	*	*	*	*	*	*	*	*	*	*	*	*	*	*	*	*	*	*
2E-X\	6	.	2E-X\	.	2E-X\	-ku	.	2c\	Ba-	.	.	.	.	2g\	-ku	.	.	.	.	.	.	.	.	.	.	.	.	.	.	.	.	.	.	.
.	.	.	.	.	.	.	.	.	.	.	4g\	-ku	.	.	.	.	.	.	.	.	.	.	.	.	.	.	.	.	.	.	.	.	.	.
=3	=3	=3	=3	=3	=3	=3	=3	=3	=3	=3	=3	=3	=3	=3	=3	=3	=3	=3	=3	=3	=3	=3	=3	=3	=3	=3	=3	=3	=3	=3	=3	=3	=3	=3
2D\	7 4	.	2D\	.	1D	Bo-	.	2c\	-ran-	.	[1g	Bo-	.	[1dd	Bo-	.	1r	.	1r	.	1r	.	1r	.	1r	.	1r	.	1r	.	.	.	.	.
2d\	6 _	.	2d\	.	.	.	.	2B-\	.	.	.	.	.	.	.	.	.	.	.	.	.	.	.	.	.	.	.	.	.	.	.	.	.	.
=4	=4	=4	=4	=4	=4	=4	=4	=4	=4	=4	=4	=4	=4	=4	=4	=4	=4	=4	=4	=4	=4	=4	=4	=4	=4	=4	=4	=4	=4	=4	=4	=4	=4	=4
1D	4	.	1D	.	2D\	-ży	.	2A\	.	.	2g\]	.	.	2dd\]	.	.	1r	.	1r	.	1r	.	1r	.	1r	.	1r	.	1r	.	.	.	.	.
.	3#	.	.	.	2D\	-coś	.	2A\	-ku	.	2f#X\	-ży	.	2dd\	-ży	.	.	.	.	.	.	.	.	.	.	.	.	.	.	.	.	.	.	.
=5	=5	=5	=5	=5	=5	=5	=5	=5	=5	=5	=5	=5	=5	=5	=5	=5	=5	=5	=5	=5	=5	=5	=5	=5	=5	=5	=5	=5	=5	=5	=5	=5	=5	=5
2GG/	-	.	2GG/	.	2GG/	wyr-	.	2B-\	Bo-	.	2g\	coś	.	2dd\	coś	.	1r	.	1r	.	1r	.	1r	.	1r	.	1r	.	1r	.	0r	.	0r	.
!	!	!	!	!	!	!	!	!	!	!	!LO:LB:g=original	!	!	!	!	!	!	!	!	!	!	!	!	!	!	!	!	!	!	!	!	!	!	!
2G\	.	.	2G\	.	4G\	-wał	.	[2d\	.	.	(4a\	wyr-	.	[2dd\	wyr-	.	.	.	.	.	.	.	.	.	.	.	.	.	.	.	.	.	.	.
.	.	.	.	.	4G\	od	.	.	.	.	4b-\)	.	.	.	.	.	.	.	.	.	.	.	.	.	.	.	.	.	.	.	.	.	.	.
=6	=6	=6	=6	=6	=6	=6	=6	=6	=6	=6	=6	=6	=6	=6	=6	=6	=6	=6	=6	=6	=6	=6	=6	=6	=6	=6	=6	=6	=6	=6	=6	=6	=6	=6
!	!	!	!	!	!LO:LB:g=original	!	!	!	!	!	!	!	!	!LO:LB:g=original	!	!	!	!	!	!	!	!	!	!	!	!	!	!	!	!	!	!	!	!
2F#X\	6	.	2F#X\	.	2F#X\	zgu-	.	2d\]	.	.	2a\	-wał	.	2dd\]	.	.	1r	.	1r	.	1r	.	1r	.	1r	.	1r	.	1r	.	.	.	.	.
2D\	.	.	2D\	.	2D\	-by	.	2c\	-ży	.	2f#X\	od	.	4dd\	-wał	.	.	.	.	.	.	.	.	.	.	.	.	.	.	.	.	.	.	.
.	.	.	.	.	.	.	.	.	.	.	.	.	.	4dd\	od	.	.	.	.	.	.	.	.	.	.	.	.	.	.	.	.	.	.	.
=7	=7	=7	=7	=7	=7	=7	=7	=7	=7	=7	=7	=7	=7	=7	=7	=7	=7	=7	=7	=7	=7	=7	=7	=7	=7	=7	=7	=7	=7	=7	=7	=7	=7	=7
*	*	*	*	*	*	*	*	*	*	*	*	*	*	*	*	*	*	*	*	*	*	*	*	*	*	*	*	*	*	*	*2\right	*	*2\right	*
!	!	!	!LO:LB:g=original	!	!	!	!	!LO:LB:g=original	!	!	!	!	!	!	!	!	!	!	!	!	!	!	!	!	!	!	!	!	!	!	!	!LO:DY:t=p.	!	!
2G\	-	.	2G\	.	1G	swiat	.	2c\	coś	.	2d\	zgu-	.	[1dd	zgu-	.	1r	.	1r	.	1r	.	1r	.	1r	.	1r	.	1r	.	2g\	p	[1gg	p
2GG/	.	.	2GG/	.	.	.	.	2B-\	wyr-	.	[2g\	.	.	.	.	.	.	.	.	.	.	.	.	.	.	.	.	.	.	.	2b-\	.	.	.
=8	=8	=8	=8	=8	=8	=8	=8	=8	=8	=8	=8	=8	=8	=8	=8	=8	=8	=8	=8	=8	=8	=8	=8	=8	=8	=8	=8	=8	=8	=8	=8	=8	=8	=8
!LO:LB:g=original	!	!	!	!	!	!	!	!	!	!	!	!	!	!	!	!	!	!	!	!	!	!	!	!	!	!	!	!	!	!	!	!	!	!
2.D\	4	.	2.D\	.	2D\	po-	.	2A\	-wał	.	2g\]	.	.	2dd\]	.	.	1r	.	1r	.	1r	.	1r	.	1r	.	1r	.	1r	.	1a	.	2gg\]	.
.	3n	.	.	.	2D\	-ma-	.	2A\	od	.	2fn\	-by	.	2dd\	-by	.	.	.	.	.	.	.	.	.	.	.	.	.	.	.	.	.	2ff\	.
8D\L	.	.	8D\L	.	.	.	.	.	.	.	.	.	.	.	.	.	.	.	.	.	.	.	.	.	.	.	.	.	.	.	.	.	.	.
8En\J	.	.	8En\J	.	.	.	.	.	.	.	.	.	.	.	.	.	.	.	.	.	.	.	.	.	.	.	.	.	.	.	.	.	.	.
=9	=9	=9	=9	=9	=9	=9	=9	=9	=9	=9	=9	=9	=9	=9	=9	=9	=9	=9	=9	=9	=9	=9	=9	=9	=9	=9	=9	=9	=9	=9	=9	=9	=9	=9
!	!	!	!	!LO:HP:b	!	!	!	!	!	!	!	!	!	!	!	!	!	!	!	!	!	!	!	!	!	!	!	!	!	!	!	!	!	!
2Fn\	n	.	2Fn\	>	2.Fn\	-za-	.	(2A\	zgu-	.	1f	Swiat	.	1ccn	Swiat	.	1r	.	1r	.	1r	.	1r	.	1r	.	1r	.	1r	.	(2a^<\	.	[1ff^<	.
.	.	.	.	]	.	.	.	.	.	.	.	.	.	.	.	.	.	.	.	.	.	.	.	.	.	.	.	.	.	.	.	.	.	.
2F\	.	.	2F\	.	.	.	.	4B-\)	.	.	.	.	.	.	.	.	.	.	.	.	.	.	.	.	.	.	.	.	.	.	2b-\)	.	.	.
.	.	.	.	.	4F\	-ny	.	4B-\	-by	.	.	.	.	.	.	.	.	.	.	.	.	.	.	.	.	.	.	.	.	.	.	.	.	.
=10	=10	=10	=10	=10	=10	=10	=10	=10	=10	=10	=10	=10	=10	=10	=10	=10	=10	=10	=10	=10	=10	=10	=10	=10	=10	=10	=10	=10	=10	=10	=10	=10	=10	=10
2E-\	6	.	2E-X\	.	2E-X\	po-	.	(2c\	swiat	.	2g\	po-	.	2cc\	po-	.	1r	.	1r	.	1r	.	1r	.	1r	.	1r	.	1r	.	1g	.	2ff\]	.
2C\	.	.	2C\	.	2C\	-ma-	.	2e-X\)	.	.	2g\	-ma-	.	2cc\	-ma-	.	.	.	.	.	.	.	.	.	.	.	.	.	.	.	.	.	2ee-\	.
=11	=11	=11	=11	=11	=11	=11	=11	=11	=11	=11	=11	=11	=11	=11	=11	=11	=11	=11	=11	=11	=11	=11	=11	=11	=11	=11	=11	=11	=11	=11	=11	=11	=11	=11
2F\	8	.	2F\	.	1F	-za-	.	2f\	po-	.	1a	-za-	.	1cc	-za-	.	1r	.	1r	.	1r	.	1r	.	1r	.	1r	.	1r	.	1a	.	1ee-	.
2FF/	7n	.	2FF/	.	.	.	.	2e-\	-ma-	.	.	.	.	.	.	.	.	.	.	.	.	.	.	.	.	.	.	.	.	.	.	.	.	.
=12	=12	=12	=12	=12	=12	=12	=12	=12	=12	=12	=12	=12	=12	=12	=12	=12	=12	=12	=12	=12	=12	=12	=12	=12	=12	=12	=12	=12	=12	=12	=12	=12	=12	=12
!	!	!	!	!	!	!	!	!	!	!	!LO:LB:g=original	!	!	!	!	!	!	!	!	!	!	!	!	!	!	!	!	!	!	!	!	!	!	!
2BB-/	6	.	2BB-/	.	2C/	-ny	.	2d\	-za-	.	2b-\	-ny	.	2dd\	-ny	.	1r	.	1r	.	1r	.	1r	.	1r	.	1r	.	1r	.	2b-\	.	(2dd\	.
2C/	6	.	2C/	.	2C/	grze-	.	4A\	-ny	.	2a\	grze-	.	2dd\	grze-	.	.	.	.	.	.	.	.	.	.	.	.	.	.	.	2a\	.	2cc\	.
.	.	.	.	.	.	.	.	4A\	grze-	.	.	.	.	.	.	.	.	.	.	.	.	.	.	.	.	.	.	.	.	.	.	.	.	.
=13	=13	=13	=13	=13	=13	=13	=13	=13	=13	=13	=13	=13	=13	=13	=13	=13	=13	=13	=13	=13	=13	=13	=13	=13	=13	=13	=13	=13	=13	=13	=13	=13	=13	=13
!	!	!	!	!	!LO:PB:g=original	!	!	!LO:LB:g=original	!	!	!	!	!	!LO:LB:g=original	!	!	!	!	!	!	!	!	!	!	!	!	!	!	!	!	!	!	!	!
1D	6 4	.	1D	.	1D	-cha-	.	(2B-\	-cha-	.	2g\	-cha-	.	1dd	-cha-	.	1r	.	1r	.	1r	.	1r	.	1r	.	1r	.	1r	.	2g/	.	2b-\	.
.	7 #	.	.	.	.	.	.	2c\)	.	.	2f#X\	.	.	.	.	.	.	.	.	.	.	.	.	.	.	.	.	.	.	.	2f#X/	.	2a\	.
=14	=14	=14	=14	=14	=14	=14	=14	=14	=14	=14	=14	=14	=14	=14	=14	=14	=14	=14	=14	=14	=14	=14	=14	=14	=14	=14	=14	=14	=14	=14	=14	=14	=14	=14
2GG/	-	.	2GG/	.	2GG/	-mi,	.	2B-\	-mi	.	1g	.	.	2dd\	-mi	.	1r	.	1r	.	1r	.	1r	.	1r	.	1r	.	1r	.	2g/	.	2g\)	.
[2G\	.	.	[2G\	.	2G\	racz	.	2r	.	.	.	.	.	2r	.	.	.	.	.	.	.	.	.	.	.	.	.	.	.	.	2r	.	2r	.
=15	=15	=15	=15	=15	=15	=15	=15	=15	=15	=15	=15	=15	=15	=15	=15	=15	=15	=15	=15	=15	=15	=15	=15	=15	=15	=15	=15	=15	=15	=15	=15	=15	=15	=15
!	!	!	!LO:LB:g=original	!	!	!	!	!	!	!	!	!	!	!LO:TX:a:t=2	!	!	!	!	!	!	!	!	!	!	!	!	!	!	!	!	!LO:TX:a:t=3	!	!LO:TX:a:t=3	!
2G\]	_ _	.	2G\]	.	2G\	przy-	.	2A\	racz	.	2f\	-mi	.	0r	.	.	1r	.	1r	.	1r	.	1r	.	1r	.	1r	.	1r	.	0r	.	0r	.
2F#X\	6 5	.	2F#X\	.	2F#X\	-iać	.	[2c\	przy-	.	2r	.	.	.	.	.	.	.	.	.	.	.	.	.	.	.	.	.	.	.	.	.	.	.
=16	=16	=16	=16	=16	=16	=16	=16	=16	=16	=16	=16	=16	=16	=16	=16	=16	=16	=16	=16	=16	=16	=16	=16	=16	=16	=16	=16	=16	=16	=16	=16	=16	=16	=16
2G\	5 4	.	2G\	.	1G	na	.	2c\]	.	.	2d\	racz	.	.	.	.	1r	.	1r	.	1r	.	1r	.	1r	.	1r	.	1r	.	.	.	.	.
2B-\	6	.	2B-\	.	.	.	.	2B-\	-iąć	.	[2g\	przy-	.	.	.	.	.	.	.	.	.	.	.	.	.	.	.	.	.	.	.	.	.	.
=17	=17	=17	=17	=17	=17	=17	=17	=17	=17	=17	=17	=17	=17	=17	=17	=17	=17	=17	=17	=17	=17	=17	=17	=17	=17	=17	=17	=17	=17	=17	=17	=17	=17	=17
2d\	4	.	2d\	.	2D\	-sze-	.	1A	na-	.	2g\]	.	.	2a\	racz	.	1r	.	1r	.	1r	.	1r	.	1r	.	1r	.	1r	.	1r	.	1r	.
[2D\	3#	.	[2D\	.	2D\	-wo-	.	.	.	.	2f#X\	-iąć	.	[2dd\	przy-	.	.	.	.	.	.	.	.	.	.	.	.	.	.	.	.	.	.	.
=18	=18	=18	=18	=18	=18	=18	=18	=18	=18	=18	=18	=18	=18	=18	=18	=18	=18	=18	=18	=18	=18	=18	=18	=18	=18	=18	=18	=18	=18	=18	=18	=18	=18	=18
!LO:LB:g=original	!	!	!	!	!	!	!	!	!	!	!	!	!	!	!	!	!	!	!	!	!	!	!	!	!	!	!	!	!	!	!	!	!	!
2D\]	7 #	.	2D\]	.	[1D	-ła-	.	2c\	-ʃze	.	2f#X\	na-	.	2dd\]	.	.	1r	.	1r	.	1r	.	1r	.	1r	.	1r	.	1r	.	2r	.	2dd\	.
[2d\	6 4	.	[2d\	.	.	.	.	2B-\	wo-	.	2g\	.	.	2dd\	-iąć	.	.	.	.	.	.	.	.	.	.	.	.	.	.	.	2b-\	.	2gg\	.
=19	=19	=19	=19	=19	=19	=19	=19	=19	=19	=19	=19	=19	=19	=19	=19	=19	=19	=19	=19	=19	=19	=19	=19	=19	=19	=19	=19	=19	=19	=19	=19	=19	=19	=19
!	!	!	!	!	!	!	!	!LO:LB:g=original	!	!	!	!	!	!	!	!	!	!	!	!	!	!	!	!	!	!	!	!	!	!	!	!	!LO:LB:g=original	!
2d\]	n	.	2d\]	.	2D\]	.	.	1A	-ła-	.	2fn\	-sze	.	2dd\	na-	.	1r	.	1r	.	1r	.	1r	.	1r	.	1r	.	1r	.	1a	.	2ff\	.
2c\	4 3	.	2c\	.	2C/	-nia	.	.	.	.	2e-X\	wo-	.	4dd\	-sze	.	.	.	.	.	.	.	.	.	.	.	.	.	.	.	.	.	2ee-\	.
.	.	.	.	.	.	.	.	.	.	.	.	.	.	8dd\L	wo-	.	.	.	.	.	.	.	.	.	.	.	.	.	.	.	.	.	.	.
.	.	.	.	.	.	.	.	.	.	.	.	.	.	8ee-X\J	.	.	.	.	.	.	.	.	.	.	.	.	.	.	.	.	.	.	.	.
=20	=20	=20	=20	=20	=20	=20	=20	=20	=20	=20	=20	=20	=20	=20	=20	=20	=20	=20	=20	=20	=20	=20	=20	=20	=20	=20	=20	=20	=20	=20	=20	=20	=20	=20
!	!	!	!	!LO:DY:b	!LO:LB:g=original	!	!	!	!	!	!	!	!	!	!	!	!	!	!	!	!	!	!	!	!	!	!	!	!	!	!	!	!	!
2B-\	.	.	2B-\	f	1BB-	na-	.	2B-\	-nia	.	2d\	-ła-	.	1ff	-ła-	.	1r	.	1r	.	1r	.	1r	.	1r	.	1d	f	1b-	f	[1b-^<	.	1dd^<	.
2BB-/	.	.	2BB-/	.	.	.	.	2d\	wo-	.	2b-\	.	.	.	.	.	.	.	.	.	.	.	.	.	.	.	.	.	.	.	.	.	.	.
=21	=21	=21	=21	=21	=21	=21	=21	=21	=21	=21	=21	=21	=21	=21	=21	=21	=21	=21	=21	=21	=21	=21	=21	=21	=21	=21	=21	=21	=21	=21	=21	=21	=21	=21
!	!	!	!	!LO:HP:b	!	!	!	!	!	!	!	!	!	!LO:LB:g=original	!	!	!	!	!	!	!	!	!	!	!	!	!	!	!	!	!LO:LB:g=original	!	!	!
2C/	7 4	.	2C/	>	2C/	-sze	.	1c	-ła-	.	2b-\	-nia	.	1ff	.	.	1r	.	1r	.	1r	.	1r	.	1r	.	1f	.	1f	.	2b-\]	.	1cc	.
2F\	3	.	2F\	.	2F\	wo-	.	.	.	.	2a\	wo-	.	.	.	.	.	.	.	.	.	.	.	.	.	.	.	.	.	.	2a\	.	.	.
=22	=22	=22	=22	=22	=22	=22	=22	=22	=22	=22	=22	=22	=22	=22	=22	=22	=22	=22	=22	=22	=22	=22	=22	=22	=22	=22	=22	=22	=22	=22	=22	=22	=22	=22
*	*	*	*	*	*	*	*	*	*	*	*	*	*	*	*	*	*	*	*	*	*	*	*	*	*	*	*2\right	*	*2\right	*	*	*	*	*
2G\	7 3	.	2G\	.	1G	-ła-	.	1B-	.	.	1b-	-ła-	.	2ff\	.	.	1r	.	1r	.	1r	.	1r	.	1r	.	2d/	.	2b-\	.	2b-\	.	1b-	.
2GG/	6 _	.	2GG/	]	.	.	.	.	.	.	.	.	.	2ee-\	.	.	.	.	.	.	.	.	.	.	.	.	2r	.	2r	.	2g\	.	.	.
=23	=23	=23	=23	=23	=23	=23	=23	=23	=23	=23	=23	=23	=23	=23	=23	=23	=23	=23	=23	=23	=23	=23	=23	=23	=23	=23	=23	=23	=23	=23	=23	=23	=23	=23
2FF/	7	.	2FF/	.	2F\	-nia	.	2c\	-nia	.	2a\	-nia	.	2ee-\	-nia	.	1r	.	1r	.	1r	.	1r	.	1r	.	2f/	.	2cc\	.	2a\	.	2cc\	.
2BB-/	.	.	2BB-/	.	2B-\	i	.	2d\	i	.	2b-\	i	.	2dd\	i_	.	.	.	.	.	.	.	.	.	.	.	2b-\	.	2dd\	.	2b-\	.	2dd\	.
=24	=24	=24	=24	=24	=24	=24	=24	=24	=24	=24	=24	=24	=24	=24	=24	=24	=24	=24	=24	=24	=24	=24	=24	=24	=24	=24	=24	=24	=24	=24	=24	=24	=24	=24
!	!	!	!LO:LB:g=original	!	!	!	!	!	!	!	!	!	!	!	!	!	!	!	!	!	!	!	!	!	!	!	!	!	!	!	!	!	!	!
2E-\	6	.	2E-\	.	2E-\	slu-	.	1e-	ʃlu-	.	(2g\	ʃlu-	.	1cc	ʃlu-	.	1r	.	1r	.	1r	.	1r	.	1r	.	2r	.	2r	.	2g\	.	1cc	.
2F\	7	.	2F\	.	2F\	.	.	.	.	.	2a\)	.	.	.	.	.	.	.	.	.	.	.	.	.	.	.	2f/	.	(2cc\	.	2a\	.	.	.
=25	=25	=25	=25	=25	=25	=25	=25	=25	=25	=25	=25	=25	=25	=25	=25	=25	=25	=25	=25	=25	=25	=25	=25	=25	=25	=25	=25	=25	=25	=25	=25	=25	=25	=25
!	!	!	!	!LO:HP:b	!	!	!	!	!	!	!	!	!	!	!	!	!	!	!	!	!	!	!	!	!	!	!	!	!	!	!	!	!	!
2BB-/	3	.	2BB-/	>	2BB-/	-by	.	2d\	.	.	2b-\	-by	.	2b-\	-by	.	1r	.	1r	.	1r	.	1r	.	1r	.	2d/	.	2b-\)	.	2b-\	.	2b-\	.
[2B-\	.	.	[2B-\	]	4r	.	.	2B-\	-by	.	2r	.	.	2r	.	.	.	.	.	.	.	.	.	.	.	.	2r	.	2r	.	2r	.	2r	.
.	.	.	.	.	4B-\	o-	.	.	.	.	.	.	.	.	.	.	.	.	.	.	.	.	.	.	.	.	.	.	.	.	.	.	.	.
=26	=26	=26	=26	=26	=26	=26	=26	=26	=26	=26	=26	=26	=26	=26	=26	=26	=26	=26	=26	=26	=26	=26	=26	=26	=26	=26	=26	=26	=26	=26	=26	=26	=26	=26
!	!	!	!	!	!	!	!	!LO:TX:a:t=1	!	!	!LO:LB:g=orgiginal	!	!	!LO:TX:a:t=1	!	!	!	!	!	!	!	!	!	!	!	!	!	!	!	!	!LO:TX:a:t=4	!	!LO:TX:a:t=4	!
!	!	!	!	!	!	!	!	!	!	!	!LO:PB:g=original	!	!	!	!	!	!	!	!	!	!	!	!	!	!	!	!	!	!	!	!	!	!	!
2B-\]	2	.	2B-\]	.	2B-\	-każ	.	1r	.	.	2c\	o-	.	1r	.	.	1r	.	1r	.	1r	.	1r	.	1r	.	[1f	.	(1cc	.	00r	.	00r	.
2A\	_	.	2A\	.	2A\	twą	.	.	.	.	2f\	-każ	.	.	.	.	.	.	.	.	.	.	.	.	.	.	.	.	.	.	.	.	.	.
=27	=27	=27	=27	=27	=27	=27	=27	=27	=27	=27	=27	=27	=27	=27	=27	=27	=27	=27	=27	=27	=27	=27	=27	=27	=27	=27	=27	=27	=27	=27	=27	=27	=27	=27
!LO:LB:g=original	!	!	!	!	!LO:LB:g=original	!	!	!LO:PB:g=original	!	!	!	!	!	!	!	!	!	!	!	!	!	!	!	!	!	!	!	!	!	!	!	!	!	!
2G\	-	.	2G\	.	2G\	li-	.	2r	.	.	1g	O-	.	2b-\	O-	.	1r	.	1r	.	1r	.	1r	.	1r	.	2b-\]	.	2dd\)	.	.	.	.	.
2E-\	6	.	2E-\	.	2E-\	-tość	.	2c\	o-	.	.	.	.	2cc\	-każ	.	.	.	.	.	.	.	.	.	.	.	2r	.	2r	.	.	.	.	.
=28	=28	=28	=28	=28	=28	=28	=28	=28	=28	=28	=28	=28	=28	=28	=28	=28	=28	=28	=28	=28	=28	=28	=28	=28	=28	=28	=28	=28	=28	=28	=28	=28	=28	=28
!	!	!	!	!	!	!	!	!	!	!	!	!	!	!LO:LB:g=original	!	!	!	!	!	!	!	!	!	!	!	!	!LO:TX:a:t=2	!	!LO:TX:a:t=2	!	!	!	!	!
1D\	7 n	.	2D\	.	1D	li-	.	2c\	-każ	.	2fn\	-każ	.	1dd	Twą	.	1r	.	1r	.	1r	.	1r	.	1r	.	0r	.	0r	.	.	.	.	.
.	6 _	.	2d\	.	.	.	.	2B-\	-Twą	.	2f\	-Twą	.	.	.	.	.	.	.	.	.	.	.	.	.	.	.	.	.	.	.	.	.	.
=29	=29	=29	=29	=29	=29	=29	=29	=29	=29	=29	=29	=29	=29	=29	=29	=29	=29	=29	=29	=29	=29	=29	=29	=29	=29	=29	=29	=29	=29	=29	=29	=29	=29	=29
2G\	-	.	2G\	.	2G\	-tość	.	2B-\	li-	.	2g\	li-	.	2dd\	li-	.	1r	.	1r	.	1r	.	1r	.	1r	.	.	.	.	.	.	.	.	.
!LO:TX:a:t=problem:b.c. pod klamrą łukową	!	!	!	!	!	!	!	!	!	!	!	!	!	!	!	!	!	!	!	!	!	!	!	!	!	!	!	!	!	!	!	!	!	!
2A\	5-	.	2A\	.	2A\	nad	.	2c\	-tość	.	[2e-X\	.	.	2cc\	-tość	.	.	.	.	.	.	.	.	.	.	.	.	.	.	.	.	.	.	.
=30	=30	=30	=30	=30	=30	=30	=30	=30	=30	=30	=30	=30	=30	=30	=30	=30	=30	=30	=30	=30	=30	=30	=30	=30	=30	=30	=30	=30	=30	=30	=30	=30	=30	=30
2F\	7	.	2F\	.	2F\	-na-	.	2c\	li-	.	2e-\]	.	.	2a\	nad	.	1r	.	1r	.	1r	.	1r	.	1r	.	(2f^/	.	(2cc\	.	2a\	.	2ee-\	.
2BB-/	8	.	2BB-/	.	2BB-/	.	.	2B-\	.	.	2d\	-tość	.	[2b-\	na-	.	.	.	.	.	.	.	.	.	.	.	4b-/)	.	4dd\)	.	[2b-\	.	2dd\	.
.	.	.	.	.	.	.	.	.	.	.	.	.	.	.	.	.	.	.	.	.	.	.	.	.	.	.	4r	.	4r	.	.	.	.	.
=31	=31	=31	=31	=31	=31	=31	=31	=31	=31	=31	=31	=31	=31	=31	=31	=31	=31	=31	=31	=31	=31	=31	=31	=31	=31	=31	=31	=31	=31	=31	=31	=31	=31	=31
!	!	!	!	!	!	!	!	!	!	!	!	!	!	!	!	!	!	!	!	!	!	!	!	!	!	!	!LO:TX:a:t=3	!	!LO:TX:a:t=3	!	!	!	!	!
2C/	7 5	.	2C/	.	2C/	-mi	.	2G/	-tość	.	2e-\	li-	.	2b-\]	.	.	1r	.	1r	.	1r	.	1r	.	1r	.	0r	.	0r	.	2b-\]	.	[1cc	>
!	!	!	!	!LO:DY:b	!	!	!	!	!	!	!	!	!	!	!	!	!	!	!	!	!	!	!	!	!	!	!	!	!	!	!	!	!	!
4D/	_ _	.	4D/	p	2E-X\	nad	.	2G/	nad	.	2c\	.	.	2a\	-mi	.	.	.	.	.	.	.	.	.	.	.	.	.	.	.	4a\	.	.	.
4E-/	4 3	.	4E-X/	.	.	.	.	.	.	.	.	.	.	.	.	.	.	.	.	.	.	.	.	.	.	.	.	.	.	.	4g\	.	.	.
=32	=32	=32	=32	=32	=32	=32	=32	=32	=32	=32	=32	=32	=32	=32	=32	=32	=32	=32	=32	=32	=32	=32	=32	=32	=32	=32	=32	=32	=32	=32	=32	=32	=32	=32
!	!	!	!LO:LB:g=original	!	!	!	!	!	!	!	!LO:PB:g=original	!	!	!	!	!	!	!	!	!	!	!	!	!	!	!	!	!	!	!	!	!	!	!
2D\	7 #	.	2D\	.	2D/	-na-	.	2A\	-na-	.	2c\	-tość	.	2f#X/	nad	.	1r	.	1r	.	1r	.	1r	.	1r	.	.	.	.	.	2f#X/	.	2cc\]	.
2C#X\	7- 3-	.	2C#X^<\	.	2C#X/	.	.	4B-\	-mi	.	2e-X\	nad	.	[<2g/	na-	.	.	.	.	.	.	.	.	.	.	.	.	.	.	.	[2g/	.	2b-\	.
.	.	.	.	.	.	.	.	4B-\	nad	.	.	.	.	.	.	.	.	.	.	.	.	.	.	.	.	.	.	.	.	.	.	.	.	]
=33	=33	=33	=33	=33	=33	=33	=33	=33	=33	=33	=33	=33	=33	=33	=33	=33	=33	=33	=33	=33	=33	=33	=33	=33	=33	=33	=33	=33	=33	=33	=33	=33	=33	=33
!	!	!	!	!	!	!	!	!LO:LB:g=original	!	!	!	!	!	!	!	!	!	!	!	!	!	!	!	!	!	!	!	!	!	!	!	!	!	!
1D	4	.	1D	.	1D	.	.	2A\	-na-	.	1d	-na-	.	2g/]	.	.	1r	.	1r	.	1r	.	1r	.	1r	.	1r	.	1r	.	2g/]	.	1a	.
.	3#	.	.	.	.	.	.	2c\	.	.	.	.	.	2f#X/	.	.	.	.	.	.	.	.	.	.	.	.	.	.	.	.	2f#X/	.	.	.
=34	=34	=34	=34	=34	=34	=34	=34	=34	=34	=34	=34	=34	=34	=34	=34	=34	=34	=34	=34	=34	=34	=34	=34	=34	=34	=34	=34	=34	=34	=34	=34	=34	=34	=34
!	!	!	!	!	!LO:LB:g=original	!	!	!	!	!	!	!	!	!	!	!	!	!	!	!	!	!	!	!	!	!	!	!	!	!	!	!	!	!
1GG;	-	.	1GG;	.	1GG;	-mi	.	1B-;	-mi	.	1d;	-mi	.	1g;	-mi	.	1r;	.	1r;	.	1r;	.	1r;	.	1r;	.	1r;	.	1r;	.	2g/	.	2g/	.
.	.	.	.	.	.	.	.	.	.	.	.	.	.	.	.	.	.	.	.	.	.	.	.	.	.	.	.	.	.	.	2r;	.	2r;	.
=35	=35	=35	=35	=35	=35	=35	=35	=35	=35	=35	=35	=35	=35	=35	=35	=35	=35	=35	=35	=35	=35	=35	=35	=35	=35	=35	=35	=35	=35	=35	=35	=35	=35	=35
!	!	!	!LO:PB:g=original	!LO:DY:b	!	!	!	!	!	!	!	!	!	!LO:LB:g=original	!	!	!LO:TX:a:t=19	!	!LO:TX:a:t=19	!	!LO:TX:a:t=19	!	!LO:TX:a:t=19	!	!LO:TX:a:t=19	!	!	!	!	!	!LO:TX:a:t=4	!	!LO:TX:a:t=4	!
2GG/	-	.	2GG/	p	2G\	Dość	.	2B-\	dość	.	2d\	dość	.	2b-\	dość	.	1r	.	1r	.	1r	.	1r	.	1r	.	1d	p	1b-	p	00r	.	00r	.
2G\	7# 2	.	2G\	.	4G\	dłu-	.	4B-\	dłu-	.	4d\	dłu-	.	4a\	dłu-	.	.	.	.	.	.	.	.	.	.	.	.	.	.	.	.	.	.	.
.	8 3	.	.	.	4G\	-go	.	4B-\	-go	.	4d\	-go	.	4b-\	-go	.	.	.	.	.	.	.	.	.	.	.	.	.	.	.	.	.	.	.
=36	=36	=36	=36	=36	=36	=36	=36	=36	=36	=36	=36	=36	=36	=36	=36	=36	=36	=36	=36	=36	=36	=36	=36	=36	=36	=36	=36	=36	=36	=36	=36	=36	=36	=36
2F\	n	.	2F\	.	2F\	nie-	.	2A\	nie-	.	2e-\	-nie-	.	2cc\	nie-	.	1r	.	1r	.	1r	.	1r	.	1r	.	2f/	.	2cc\	.	.	.	.	.
!	!	!	!	!LO:HP:b	!	!	!	!	!	!	!	!	!	!	!	!	!	!	!	!	!	!	!	!	!	!	!	!	!	!	!	!	!	!
2BB-/	.	.	2BB-/	<	4BB-/	-ʃzczęść	.	4B-\	ʃzęść-	.	4d\	ʃzczęść-	.	4dd\	-ʃzczęść	.	.	.	.	.	.	.	.	.	.	.	2b-\	.	2dd\	.	.	.	.	.
.	.	.	.	.	4BB-/	dźwi-	.	4B-\	dźwi-	.	4d\	dźwi-	.	4dd\	dźwi-	.	.	.	.	.	.	.	.	.	.	.	.	.	.	.	.	.	.	.
=37	=37	=37	=37	=37	=37	=37	=37	=37	=37	=37	=37	=37	=37	=37	=37	=37	=37	=37	=37	=37	=37	=37	=37	=37	=37	=37	=37	=37	=37	=37	=37	=37	=37	=37
!LO:LB:g=original	!	!	!	!	!	!	!	!	!	!	!	!	!	!	!	!	!	!	!	!	!	!	!	!	!	!	!	!	!	!	!	!	!	!
2BB-/	5	.	2BB-/	.	2BB-/	-ga-	.	2B-\	-ga-	.	2f\	-ga-	.	2dd\	-ga-	.	1r	.	1r	.	1r	.	1r	.	1r	.	2r	.	2r	.	.	.	.	.
2B-\	5|	.	2B-\	[[	4B-\	-liʃ -	.	4B-\	-lis -	.	4f#X\	-liʃ -	.	4dd\	-liʃ -	.	.	.	.	.	.	.	.	.	.	.	2B-/	.	2b-\	.	.	.	.	.
.	.	.	.	.	4B-\	-my	.	4B-\	-my	.	4f#\	-my	.	4dd\	-my	.	.	.	.	.	.	.	.	.	.	.	.	.	.	.	.	.	.	.
=38	=38	=38	=38	=38	=38	=38	=38	=38	=38	=38	=38	=38	=38	=38	=38	=38	=38	=38	=38	=38	=38	=38	=38	=38	=38	=38	=38	=38	=38	=38	=38	=38	=38	=38
!	!	!	!	!	!	!	!	!	!	!	!LO:LB:g=original	!	!	!	!	!	!	!	!	!	!	!	!	!	!	!	!	!	!	!	!	!	!	!
1E-X	7 3	.	1E-X	.	2.E-X\	brze-	.	2B-\	brze-	.	2.g\	brze-	.	2dd\	brze-	.	1r	.	1r	.	1r	.	1r	.	1r	.	1B-	.	1b-	.	.	.	.	.
.	8 _	.	.	.	.	.	.	2B-\	-mię	.	.	.	.	2ee-X\	-mię	.	.	.	.	.	.	.	.	.	.	.	.	.	.	.	.	.	.	.
.	x	.	.	.	4E-\	-mię	.	.	.	.	4g\	-mię	.	.	.	.	.	.	.	.	.	.	.	.	.	.	.	.	.	.	.	.	.	.
=39	=39	=39	=39	=39	=39	=39	=39	=39	=39	=39	=39	=39	=39	=39	=39	=39	=39	=39	=39	=39	=39	=39	=39	=39	=39	=39	=39	=39	=39	=39	=39	=39	=39	=39
!	!	!	!	!LO:DY:b	!	!	!	!LO:LB:g=original	!	!	!	!	!	!	!	!	!	!	!	!	!	!	!	!	!	!	!LO:LB:g=original	!	!	!	!	!	!	!
2E-\	10	.	2E-\	f	1E-	wśrżód	.	1B-	wśród	.	1g	wśród	.	1ee-	wśród	.	1r	.	1r	.	1r	.	1r	.	1r	.	2r	.	2r	.	[1b-^<	.	1gg^<	.
2e-\	.	.	2e-\	.	.	.	.	.	.	.	.	.	.	.	.	.	.	.	.	.	.	.	.	.	.	.	2B-/	f	2b-\	f	.	.	.	.
=40	=40	=40	=40	=40	=40	=40	=40	=40	=40	=40	=40	=40	=40	=40	=40	=40	=40	=40	=40	=40	=40	=40	=40	=40	=40	=40	=40	=40	=40	=40	=40	=40	=40	=40
!	!	!	!	!LO:HP:b	!LO:LB:g=original	!	!	!	!	!	!	!	!	!	!	!	!	!	!	!	!	!	!	!	!	!	!	!	!	!	!	!	!LO:LB:g=original	!
2B-\	.	.	2B-\	>	2B-\	cięż-	.	2B-\	cięż-	.	2f\	cięż-	.	2.dd\	cięż-	.	1r	.	1r	.	1r	.	1r	.	1r	.	2B-/	.	2b-\	.	2b-\]	.	2ff\	.
2A\	6| 5	.	2A\	]]	2A\	kich	.	2c\	-kich	.	2f#X\	-kich	.	.	.	.	.	.	.	.	.	.	.	.	.	.	2r	.	2r	.	2cc\	.	2ff#X\	.
.	.	.	.	.	.	.	.	.	.	.	.	.	.	4dd\	-kich	.	.	.	.	.	.	.	.	.	.	.	.	.	.	.	.	.	.	.
=41	=41	=41	=41	=41	=41	=41	=41	=41	=41	=41	=41	=41	=41	=41	=41	=41	=41	=41	=41	=41	=41	=41	=41	=41	=41	=41	=41	=41	=41	=41	=41	=41	=41	=41
!	!	!	!	!	!	!	!	!	!	!	!	!	!	!LO:PB:g=original	!	!	!	!	!	!	!	!	!	!	!	!	!LO:LB:g=original	!	!LO:LB:g=original	!	!LO:LB:g=original	!	!	!
!	!	!	!	!	!	!	!	!	!	!	!	!	!	!	!	!	!	!	!	!	!	!	!	!	!	!	!LO:TX:a:t=4	!	!LO:TX:a:t=4	!	!	!	!	!
2G\	-_	.	2G\	.	2G\	tru-	.	2B-\	tru-	.	2g\	tru-	.	2dd\	tru-	.	1r	.	1r	.	1r	.	1r	.	1r	.	00r	.	00r	.	2b-\	.	[1gg	.
4F\	.	.	4F\	.	4F\	-dów-	.	4c\	-dów-	.	4g\	-dów-	.	4dd\	-dów-	.	.	.	.	.	.	.	.	.	.	.	.	.	.	.	2g/	.	.	.
4E-X\	.	.	4E-X\	.	4E-\	i	.	4c\	i	.	4g\	i	.	4dd\	i	.	.	.	.	.	.	.	.	.	.	.	.	.	.	.	.	.	.	.
=42	=42	=42	=42	=42	=42	=42	=42	=42	=42	=42	=42	=42	=42	=42	=42	=42	=42	=42	=42	=42	=42	=42	=42	=42	=42	=42	=42	=42	=42	=42	=42	=42	=42	=42
!	!	!	!LO:LB:g=original	!	!	!	!	!	!	!	!	!	!	!	!	!	!	!	!	!	!	!	!	!	!	!	!	!	!	!	!	!	!	!
2D\	6 4	.	2D\	.	2.D\	zno-	.	2.d\	zno-	.	2g\	zno-	.	2dd\	zno-	.	1r	.	1r	.	1r	.	1r	.	1r	.	.	.	.	.	1a	.	2gg\]	.
4d\	8_ 3	.	4d\	.	.	.	.	.	.	.	4f\	.	.	4dd\	-iu-	.	.	.	.	.	.	.	.	.	.	.	.	.	.	.	.	.	4ffn\	.
4c\	3	.	4c\	.	4C/	.	.	4e-\	.	.	4e-\	.	.	4r	.	.	.	.	.	.	.	.	.	.	.	.	.	.	.	.	.	.	4ee-\	.
=43	=43	=43	=43	=43	=43	=43	=43	=43	=43	=43	=43	=43	=43	=43	=43	=43	=43	=43	=43	=43	=43	=43	=43	=43	=43	=43	=43	=43	=43	=43	=43	=43	=43	=43
!	!	!	!	!LO:DY:b	!	!	!	!	!	!	!	!	!	!	!	!	!	!	!	!	!	!	!	!	!	!	!	!	!	!	!	!	!	!
2B-\	10 3	.	2B-\	p	2BB-/	-ju	.	2f\	-ju	.	2d\	-ju	.	2r	.	.	1r	.	1r	.	1r	.	1r	.	1r	.	.	.	.	.	1b-	.	(1dd	.
!	!	!	!	!	!	!	!	!	!	!	!LO:LB:g=original	!	!	!	!	!	!	!	!	!	!	!	!	!	!	!	!	!	!	!	!	!	!	!
2BB-/	.	.	2BB-/	.	4r	.	.	2d\	z_gór-	.	2d\	z_gór-	.	2ff\	z_gór-	.	.	.	.	.	.	.	.	.	.	.	.	.	.	.	.	.	.	.
.	.	.	.	.	4BB-/	z gór	.	.	.	.	.	.	.	.	.	.	.	.	.	.	.	.	.	.	.	.	.	.	.	.	.	.	.	.
=44	=44	=44	=44	=44	=44	=44	=44	=44	=44	=44	=44	=44	=44	=44	=44	=44	=44	=44	=44	=44	=44	=44	=44	=44	=44	=44	=44	=44	=44	=44	=44	=44	=44	=44
2C/	-	.	2C/	.	(2C/	ne-	.	2c\	-ne-	.	(2e-\	-ne-	.	2.ee-\	-ne-	.	1r	.	1r	.	1r	.	1r	.	1r	.	.	.	.	.	1g	.	2ee-\)	.
4D\	_ _	.	4D/	.	4D/)	.	.	2B-\	-go	.	4f\)	.	.	.	.	.	.	.	.	.	.	.	.	.	.	.	.	.	.	.	.	.	2r	.
4E-\	5 3	.	4E-\	.	4E-\	-go	.	.	.	.	4g\	-go	.	4ee-\	-go	.	.	.	.	.	.	.	.	.	.	.	.	.	.	.	.	.	.	.
=45	=45	=45	=45	=45	=45	=45	=45	=45	=45	=45	=45	=45	=45	=45	=45	=45	=45	=45	=45	=45	=45	=45	=45	=45	=45	=45	=45	=45	=45	=45	=45	=45	=45	=45
2D\	4	.	2D\	.	1F	nie-	.	2B-\	Nie-	.	[1f	Nie-	.	2cc\	Nie-	.	1r	.	1r	.	1r	.	1r	.	1r	.	1f	.	1cc	.	[1a	.	(1cc	.
2FF/	3	.	2FF/	.	.	.	.	[2A\	.	.	.	.	.	4b-\	.	.	.	.	.	.	.	.	.	.	.	.	.	.	.	.	.	.	.	.
.	.	.	.	.	.	.	.	.	.	.	.	.	.	4cc\	.	.	.	.	.	.	.	.	.	.	.	.	.	.	.	.	.	.	.	.
=46	=46	=46	=46	=46	=46	=46	=46	=46	=46	=46	=46	=46	=46	=46	=46	=46	=46	=46	=46	=46	=46	=46	=46	=46	=46	=46	=46	=46	=46	=46	=46	=46	=46	=46
!	!	!	!	!	!LO:LB:g=original	!	!	!LO:LB:g=original	!	!	!	!	!	!	!	!	!	!	!	!	!	!	!	!	!	!	!	!	!	!	!	!	!	!
1D	8 n	.	1D	.	2D\	.	.	2A\]	.	.	2f\]	.	.	2.dd\	.	.	1r	.	1r	.	1r	.	1r	.	1r	.	[1d^<	.	1dd^<	.	1a]	.	2dd\)	.
.	7 3#	.	.	.	2D\	-ba	.	2A\	-ba	.	2f#X\	-ba	.	.	.	.	.	.	.	.	.	.	.	.	.	.	.	.	.	.	.	.	2r	.
.	.	.	.	.	.	.	.	.	.	.	.	.	.	4cc\	-ba	.	.	.	.	.	.	.	.	.	.	.	.	.	.	.	.	.	.	.
=47	=47	=47	=47	=47	=47	=47	=47	=47	=47	=47	=47	=47	=47	=47	=47	=47	=47	=47	=47	=47	=47	=47	=47	=47	=47	=47	=47	=47	=47	=47	=47	=47	=47	=47
!LO:LB:g=original	!	!	!	!LO:DY:b	!	!	!LO:DY:a	!	!	!LO:DY:a	!	!	!LO:DY:b	!LO:LB:g=original	!	!LO:DY:a	!	!	!	!	!	!	!	!	!	!	!	!	!	!	!	!LO:DY:t=po.	!	!LO:DY:t=pp
2GG/	-	.	2GG/	pp	(2GG/	zwróc	p	(2B-\	zwróc	pp	1g	zwróć	pp	1b-	zwróc	pp	1r	.	1r	.	1r	.	1r	.	1r	.	2d/]	.	2b-\	.	1g	p	2r	.
2BB-/	.	.	2BB-/	.	2BB-/)	.	.	2d\)	.	.	.	.	.	.	.	.	.	.	.	.	.	.	.	.	.	.	2r	.	2r	.	.	.	[2dd\	pp
=48	=48	=48	=48	=48	=48	=48	=48	=48	=48	=48	=48	=48	=48	=48	=48	=48	=48	=48	=48	=48	=48	=48	=48	=48	=48	=48	=48	=48	=48	=48	=48	=48	=48	=48
!	!	!	!	!	!	!	!	!	!	!	!	!	!	!	!	!	!	!	!	!	!	!	!	!	!	!	!LO:TX:a:t=6	!	!LO:TX:a:t=6	!	!	!	!	!
2D\	n_	.	2D\	.	2D\	o-	.	2d\	o-	.	2fn\	o-	.	2a\	o-	.	1r	.	1r	.	1r	.	1r	.	1r	.	00r	.	00r	.	1f	.	2dd\]	.
4E-\	.	.	(4E-\	.	4F\	-ko-	.	4c\	-ko-	.	4f\	-ko-	.	4a\	-ko-	.	.	.	.	.	.	.	.	.	.	.	.	.	.	.	.	.	[2cc\	.
4F\	3	.	4F\)	.	4F\	na	.	4c\	na	.	4f\	na	.	4a\	na	.	.	.	.	.	.	.	.	.	.	.	.	.	.	.	.	.	.	.
=49	=49	=49	=49	=49	=49	=49	=49	=49	=49	=49	=49	=49	=49	=49	=49	=49	=49	=49	=49	=49	=49	=49	=49	=49	=49	=49	=49	=49	=49	=49	=49	=49	=49	=49
!	!	!	!LO:LB:g=original	!	!	!	!	!	!	!	!	!	!	!	!	!	!	!	!	!	!	!	!	!	!	!	!	!	!	!	!	!	!	!
2BB-\	n	.	2BB-\	.	(2C/	zie-	.	1c	zie-	.	(2en\	zie-	.	1g	zie-	.	1r	.	1r	.	1r	.	1r	.	1r	.	.	.	.	.	2eX/	.	2cc\]	.
2E-X\	5	.	2E-X\	.	2E-X\)	.	.	.	.	.	2e-X\)	.	.	.	.	.	.	.	.	.	.	.	.	.	.	.	.	.	.	.	2e-/	.	2cc\	.
=50	=50	=50	=50	=50	=50	=50	=50	=50	=50	=50	=50	=50	=50	=50	=50	=50	=50	=50	=50	=50	=50	=50	=50	=50	=50	=50	=50	=50	=50	=50	=50	=50	=50	=50
!	!	!	!	!	!	!	!	!	!	!	!LO:LB:g=original	!	!	!	!	!	!	!	!	!	!	!	!	!	!	!	!	!	!	!	!	!	!	!
2G\	-	.	2G\	.	2G\	-mie	.	2B-X\	-mie	.	2d\	-mie	.	2g\	-mie	.	1r	.	1r	.	1r	.	1r	.	1r	.	.	.	.	.	1d	.	2b-\	.
2F\	4n 2	.	2F\	.	2F\	day	.	2Bn\	day	.	4r	.	.	2g\	day	.	.	.	.	.	.	.	.	.	.	.	.	.	.	.	.	.	2bX\	.
.	.	.	.	.	.	.	.	.	.	.	4d\	day	.	.	.	.	.	.	.	.	.	.	.	.	.	.	.	.	.	.	.	.	.	.
=51	=51	=51	=51	=51	=51	=51	=51	=51	=51	=51	=51	=51	=51	=51	=51	=51	=51	=51	=51	=51	=51	=51	=51	=51	=51	=51	=51	=51	=51	=51	=51	=51	=51	=51
2E-\	6	.	2E-\	.	2E-\	nam	.	2c\	nam	.	2e-\	nam	.	2.g\	nam	.	1r	.	1r	.	1r	.	1r	.	1r	.	.	.	.	.	2e-/	.	2cc\	.
2D\	6n 3	.	2D\	.	2D\	o-	.	2Bn\	o-	.	2f\	o-	.	.	.	.	.	.	.	.	.	.	.	.	.	.	.	.	.	.	2f/	.	2dd\	.
.	.	.	.	.	.	.	.	.	.	.	.	.	.	4g\	o-	.	.	.	.	.	.	.	.	.	.	.	.	.	.	.	.	.	.	.
=52	=52	=52	=52	=52	=52	=52	=52	=52	=52	=52	=52	=52	=52	=52	=52	=52	=52	=52	=52	=52	=52	=52	=52	=52	=52	=52	=52	=52	=52	=52	=52	=52	=52	=52
!	!	!	!	!	!LO:LB:g=original	!	!	!LO:LB:g=original	!	!	!	!	!	!	!	!	!	!	!	!	!	!	!	!	!	!	!	!	!	!	!	!	!	!
2C/	-	.	2C/	.	2C/	-detch	.	2c\	-detch-	.	2e-\	-detch-	.	2g\	-detch-	.	1r	.	1r	.	1r	.	1r	.	1r	.	0r	.	0r	.	[1g	.	2ee-\	.
.	.	.	.	.	.	.	.	.	.	.	.	.	.	.	.	.	.	.	.	.	.	.	.	.	.	.	.	.	.	.	.	.	.	.
2BB-/	6|	.	2BB-/	.	4BB-/	-nąć	.	4G/	-nąć	.	4d\	-nąć	.	4g\	-nąć	.	.	.	.	.	.	.	.	.	.	.	.	.	.	.	.	.	2dd\	.
.	.	.	.	.	4BB-/	w_po-	.	4G/	w_po-	.	4d\	w_po-	.	4g\	w_po-	.	.	.	.	.	.	.	.	.	.	.	.	.	.	.	.	.	.	.
=53	=53	=53	=53	=53	=53	=53	=53	=53	=53	=53	=53	=53	=53	=53	=53	=53	=53	=53	=53	=53	=53	=53	=53	=53	=53	=53	=53	=53	=53	=53	=53	=53	=53	=53
!	!	!	!	!	!	!	!	!	!	!	!	!	!	!LO:LB:g=original	!	!	!	!	!	!	!	!	!	!	!	!	!	!	!	!	!	!	!	!
1AA	7	.	1AA	.	1AA	-ko-	.	2G/	-ko-	.	1c	-ko-	.	2g\	-ko-	.	1r	.	1r	.	1r	.	1r	.	1r	.	.	.	.	.	2g/]	.	2cc\	.
.	6|	.	.	.	.	.	.	2D/	.	.	.	.	.	2f#X\	.	.	.	.	.	.	.	.	.	.	.	.	.	.	.	.	2f#X/	.	4b-\	.
.	.	.	.	.	.	.	.	.	.	.	.	.	.	.	.	.	.	.	.	.	.	.	.	.	.	.	.	.	.	.	.	.	4a\	.
=54	=54	=54	=54	=54	=54	=54	=54	=54	=54	=54	=54	=54	=54	=54	=54	=54	=54	=54	=54	=54	=54	=54	=54	=54	=54	=54	=54	=54	=54	=54	=54	=54	=54	=54
1GG;	-	.	1GG;	.	1GG;	-ju	.	1D;	-ju	.	1B-;	-ju	.	1g;	-ju	.	1r;	.	1r;	.	1r;	.	1r;	.	1r;	.	1r;	.	1r;	.	1g;	.	1g;	.
*clefC4	*	*	*clefC4	*	*	*	*	*	*	*	*	*	*	*	*	*	*	*	*	*	*	*	*	*	*	*	*	*	*	*	*	*	*	*
=55||	=55||	=55||	=55||	=55||	=55||	=55||	=55||	=55||	=55||	=55||	=55||	=55||	=55||	=55||	=55||	=55||	=55||	=55||	=55||	=55||	=55||	=55||	=55||	=55||	=55||	=55||	=55||	=55||	=55||	=55||	=55||	=55||	=55||	=55||
!LO:TX:a:B:t=Allo	!	!	!LO:TX:a:B:t=Allo	!	!LO:TX:a:t=4	!	!	!LO:TX:a:t=2	!	!	!	!	!	!LO:TX:a:B:t=Allegro	!	!	!LO:TX:a:B:t=Allo:	!	!	!	!	!	!LO:TX:a:B:t=Allo mod	!	!LO:TX:a:B:t=Allo:	!	!LO:TX:a:t=4	!	!LO:TX:a:t=4	!	!	!	!LO:LB:g=original	!
!	!	!	!	!	!LO:TX:b:B:t=Allo	!	!	!LO:TX:b:B:t=Allo	!	!	!LO:TX:a:t=Allegro	!	!	!	!	!	!LO:TX:a:t=4	!	!LO:TX:a:t=4	!	!LO:TX:a:t=4	!	!LO:TX:a:t=4	!	!LO:TX:a:t=4	!	!	!	!	!	!LO:TX:a:B:t=Allo	!LO:DY:t=p	!LO:TX:a:B:t=Allo	!
4r	.	.	4r	.	00r	.	.	0r	.	.	4r	.	.	4r	.	.	00r	.	00r	.	00r	.	00r	.	00r	.	00r	.	00r	.	4r	p	4r	.
!	!	!	!	!LO:DY:b	!	!	!	!	!	!	!	!	!	!	!	!	!	!	!	!	!	!	!	!	!	!	!	!	!	!	!	!	!	!
4B-\	6	.	4B-\	p	.	.	.	.	.	.	4B-\	day	.	4g\	day	.	.	.	.	.	.	.	.	.	.	.	.	.	.	.	4B-/	.	4g/	p
4B-\	.	.	4B-\	.	.	.	.	.	.	.	4B-\	nam	.	4g\	nam	.	.	.	.	.	.	.	.	.	.	.	.	.	.	.	4B-/	.	4g/	.
4c\	6	.	4c\	.	.	.	.	.	.	.	4c\	o-	.	4a\	o-	.	.	.	.	.	.	.	.	.	.	.	.	.	.	.	4c/	.	4a/	.
=56	=56	=56	=56	=56	=56	=56	=56	=56	=56	=56	=56	=56	=56	=56	=56	=56	=56	=56	=56	=56	=56	=56	=56	=56	=56	=56	=56	=56	=56	=56	=56	=56	=56	=56
!LO:LB:g=original	!	!	!LO:LB:g=original	!	!	!	!	!	!	!	!LO:LB:g=original	!	!	!	!	!	!	!	!	!	!	!	!	!	!	!	!	!	!	!	!LO:LB:g=original	!	!	!
2d\	6	.	2d\	.	.	.	.	.	.	.	2d\	-detch-	.	2b-\	-detch-	.	.	.	.	.	.	.	.	.	.	.	.	.	.	.	2d/	.	(2b-\	.
2c\	6	.	2c\	.	.	.	.	.	.	.	2c\	-nąć	.	2a\	-nąć	.	.	.	.	.	.	.	.	.	.	.	.	.	.	.	2c/	.	2a\)	.
=57	=57	=57	=57	=57	=57	=57	=57	=57	=57	=57	=57	=57	=57	=57	=57	=57	=57	=57	=57	=57	=57	=57	=57	=57	=57	=57	=57	=57	=57	=57	=57	=57	=57	=57
2d\	6	.	2d\	.	.	.	.	4r	.	.	(4d\	day	.	2b-\	day	.	.	.	.	.	.	.	.	.	.	.	.	.	.	.	4r	.	4r	.
.	.	.	.	.	.	.	.	4d\	day	.	4f\)	.	.	.	.	.	.	.	.	.	.	.	.	.	.	.	.	.	.	.	4d/	.	4b-\	.
4c\	6 4	.	4c\	.	.	.	.	4c\	nam	.	4f\	nam	.	4cc\	nam	.	.	.	.	.	.	.	.	.	.	.	.	.	.	.	4c/	.	4cc\	.
4B-\	8 3	.	4B-\	.	.	.	.	4B-\	o-	.	4f\	o-	.	4dd\	o-	.	.	.	.	.	.	.	.	.	.	.	.	.	.	.	4B-/	.	4dd\	.
=58	=58	=58	=58	=58	=58	=58	=58	=58	=58	=58	=58	=58	=58	=58	=58	=58	=58	=58	=58	=58	=58	=58	=58	=58	=58	=58	=58	=58	=58	=58	=58	=58	=58	=58
2A\	6	.	2A\	.	.	.	.	2A\	-detch-	.	2f\	-detch-	.	2cc\	-detch-	.	.	.	.	.	.	.	.	.	.	.	.	.	.	.	[2A/	.	2cc\	.
4r	.	.	2r	.	.	.	.	4A\	-nąć	.	4f\	-nąć	.	4f/	-nąć	.	.	.	.	.	.	.	.	.	.	.	.	.	.	.	4A/]	.	4f/	.
!	!	!	!	!	!	!	!	!	!	!LO:DY:b	!	!	!	!	!	!	!	!	!	!	!	!	!	!	!	!	!	!	!	!	!	!	!	!
!	!	!	!	!	!	!	!	!	!	!LO:DY:t=for	!	!	!	!	!	!	!	!	!	!	!	!	!	!	!	!	!	!	!	!	!	!	!	!
4A\	.	.	.	.	.	.	.	4r	.	f	4r	.	.	4r	.	.	.	.	.	.	.	.	.	.	.	.	.	.	.	.	4r	.	4r	.
*clefF4	*	*	*clefF4	*	*	*	*	*	*	*	*	*	*	*	*	*	*2\right	*	*2\right	*	*2\right	*	*	*	*	*	*	*	*	*	*	*	*	*
=59	=59	=59	=59	=59	=59	=59	=59	=59	=59	=59	=59	=59	=59	=59	=59	=59	=59	=59	=59	=59	=59	=59	=59	=59	=59	=59	=59	=59	=59	=59	=59	=59	=59	=59
!	!	!LO:DY:t=for	!	!	!	!	!	!	!	!	!	!	!	!	!	!	!	!	!	!	!	!	!	!	!	!	!	!	!	!	!	!	!	!
!	!	!LO:DY:b	!	!LO:DY:b	!	!	!LO:DY:t=for	!LO:LB:g=original	!	!	!	!	!	!LO:LB:g=original	!	!LO:DY:a	!	!	!LO:TX:a:B:t=Allo	!	!LO:TX:a:B:t=Allo	!	!	!	!	!	!LO:TX:a:B:t=Allo	!	!LO:TX:a:B:t=Allo	!	!	!	!	!
4BB-/	.	f	4BB-/	f	4BB-/	day	f	4B-\	day	.	4f\	day	.	4dd\	day	f	4AA/	f	4d\	f	4f\	f	4B-/	f	4b-\	f	4d/	f	4b-\	f	4b-\	f	4dd\	f
4r	.	.	4r	.	4r	.	.	4r	.	.	4r	.	.	4r	.	.	4r	.	4r	.	4r	.	4r	.	4r	.	4r	.	4r	.	4r	.	4r	.
4D/	6	.	4D/	.	4D/	nam	.	4f\	nam	.	4f\	nam	.	4b-\	nam	.	4D/	.	4B-\	.	4f\	.	4B-/	.	4b-\	.	4d/	.	4b-\	.	4f/	.	4ff\	.
4r	.	.	4r	.	4r	.	.	4r	.	.	4r	.	.	4r	.	.	4r	.	4r	.	4r	.	4r	.	4r	.	4r	.	4r	.	4r	.	4r	.
=60	=60	=60	=60	=60	=60	=60	=60	=60	=60	=60	=60	=60	=60	=60	=60	=60	=60	=60	=60	=60	=60	=60	=60	=60	=60	=60	=60	=60	=60	=60	=60	=60	=60	=60
!	!	!	!	!LO:DY:b	!	!	!	!	!	!	!	!	!	!	!	!	!	!	!	!	!	!	!LO:TX:a:t=1	!	!LO:TX:a:t=1	!	!LO:TX:a:t=1	!	!LO:TX:a:t=1	!	!	!	!	!
!	!	!	!	!LO:DY:t=rf	!	!	!	!	!	!	!	!	!	!	!	!	!	!	!	!	!	!	!	!	!	!	!	!	!	!	!	!	!	!
2.C/	-_	.	2.C/	rfz	2.C/	day	.	2.e-\	day	.	2.g\	day	.	2.ee-\	day	.	2C/	rfz	2c^<\	.	2e-^<\	.	1r	.	1r	.	1r	.	1r	.	2g^/	.	2ee-\	.
.	.	.	.	.	.	.	.	.	.	.	.	.	.	.	.	.	2r	.	2r	.	2r	.	.	.	.	.	.	.	.	.	2r	.	2r	.
!	!	!	!	!LO:HP:b	!	!	!	!	!	!	!	!	!	!	!	!	!	!	!	!	!	!	!	!	!	!	!	!	!	!	!	!	!	!
8D/L	.	.	8D/L	>	8D\L	nam	.	4G/	nam	.	4g\	nam	.	8cc\L	nam	.	.	.	.	.	.	.	.	.	.	.	.	.	.	.	.	.	.	.
8E-/J	6	.	8E-/J	]]	8E-\J	.	.	.	.	.	.	.	.	8b-\J	.	.	.	.	.	.	.	.	.	.	.	.	.	.	.	.	.	.	.	.
=61	=61	=61	=61	=61	=61	=61	=61	=61	=61	=61	=61	=61	=61	=61	=61	=61	=61	=61	=61	=61	=61	=61	=61	=61	=61	=61	=61	=61	=61	=61	=61	=61	=61	=61
!	!	!	!	!	!LO:LB:g=original	!	!	!	!	!	!LO:LB:g=original	!	!	!	!	!	!	!	!	!	!	!	!LO:LB:g=original	!	!	!	!	!	!	!	!	!	!	!
4F\	n_	.	4F\	.	4F\	o-	.	4A\	o-	.	4f\	o-	.	4a\	o-	.	4r	.	4r	.	4r	.	4r	.	4r	.	4r	.	4r	.	4r	.	4r	.
4E-\	.	.	4E-\	.	4E-\	-detch-	.	4c\	-detch-	.	4f\	-detch-	.	4f\	-detch-	.	4E-/	.	4A\	.	4f\	.	8f/L	.	8f/L	.	4f/	.	4cc\	.	4cc'\	.	4aa'\	.
.	.	.	.	.	.	.	.	.	.	.	.	.	.	.	.	.	.	.	.	.	.	.	8f/J	.	8f/J	.	.	.	.	.	.	.	.	.
4D\	6_	.	4D/	.	4D\	-nąć	.	4B-\	-nąć	.	4f\	-nąć	.	4b-\	-nąć	.	4D/	.	4B-\	.	4f\	.	4f/	.	4f/	.	4b-\	.	4dd\	.	4dd'\	.	4bb-'\	.
4BB-/	.	.	4BB-/	.	4BB-/	w_po-	.	4B-\	w_po-	.	4f\	w_po-	.	4dd\	w_po-	.	4BB-/	.	4d\	.	4f\	.	4f/	.	4f/	.	4b-\	.	4dd\	.	4dd'\	.	4bb-'\	.
=62	=62	=62	=62	=62	=62	=62	=62	=62	=62	=62	=62	=62	=62	=62	=62	=62	=62	=62	=62	=62	=62	=62	=62	=62	=62	=62	=62	=62	=62	=62	=62	=62	=62	=62
!	!	!	!	!	!	!	!	!	!	!	!	!	!	!	!	!	!	!	!	!	!	!	!	!	!LO:LB:g=original	!	!	!	!	!	!	!	!	!
2F\	6 4	.	2F\	.	2F\	-ko-	.	2B-\	-ko-	.	2f\	-ko-	.	2dd\	-ko-	.	2FF/	.	(2d\	.	2f\	.	2f/	.	2f/	.	(2b-\	.	(2dd\	.	(2dd\	.	(2bb-\	.
4FF/	5 3	.	4FF/	.	4F\	-ju	.	4A\	-ju	.	4f\	-ju	.	4cc\	-ju	.	2r	.	4c\)	.	4r	.	2r	.	2r	.	4f/)	.	4cc\)	.	4cc\)	.	4aa\)	.
*clefC3	*	*	*	*	*	*	*	*	*	*	*	*	*	*	*	*	*	*	*	*	*	*	*	*	*	*	*	*	*	*	*	*	*	*
!LO:TX:a:t=unis	!	!	!	!	!	!	!	!	!	!	!	!	!	!	!	!	!	!	!	!	!	!	!	!	!	!	!	!	!	!	!	!	!	!
4f	.	.	4r	.	4r	.	.	4r	.	.	4f\	z_gór-	.	4r	.	.	.	.	4r	.	4f\	.	.	.	.	.	4r	.	4r	.	4r	.	4r	.
=63	=63	=63	=63	=63	=63	=63	=63	=63	=63	=63	=63	=63	=63	=63	=63	=63	=63	=63	=63	=63	=63	=63	=63	=63	=63	=63	=63	=63	=63	=63	=63	=63	=63	=63
*	*	*	*clefC4	*	*	*	*	*	*	*	*	*	*	*	*	*	*	*	*	*	*	*	*	*	*	*	*	*	*	*	*	*	*	*
!LO:LB:g=original	!	!	!LO:TX:a:t=problem:brak przypomnienia zmiany klucza	!	!	!	!	!	!	!	!	!	!	!	!	!	!	!	!	!	!	!	!	!	!	!	!	!	!	!	!	!	!	!
!	!	!	!LO:LB:g=original	!	!LO:TX:a:t=11	!	!	!	!	!	!	!	!	!LO:TX:a:t=3	!	!	!LO:TX:a:t=11	!	!LO:TX:a:t=7	!	!	!	!LO:TX:a:t=9	!	!LO:TX:a:t=9	!	!LO:TX:a:t=5	!	!LO:TX:a:t=5	!	!LO:TX:a:t=3	!	!LO:TX:a:t=3	!
2g	.	.	2r	.	00r	.	.	2r	.	.	2g\	-ne-	.	0r	.	.	00r	.	00r	.	2g\	.	00r	.	00r	.	00r	.	00r	.	0r	.	0r	.
4f	.	.	4r	.	.	.	.	4r	.	.	2f\	-go	.	.	.	.	.	.	.	.	2f\	.	.	.	.	.	.	.	.	.	.	.	.	.
4e-\	2	.	4e-\	.	.	.	.	4e-\	day	.	.	.	.	.	.	.	.	.	.	.	.	.	.	.	.	.	.	.	.	.	.	.	.	.
=64	=64	=64	=64	=64	=64	=64	=64	=64	=64	=64	=64	=64	=64	=64	=64	=64	=64	=64	=64	=64	=64	=64	=64	=64	=64	=64	=64	=64	=64	=64	=64	=64	=64	=64
!	!	!	!	!	!	!	!	!LO:LB:g=original	!	!	!	!	!	!	!	!	!	!	!	!	!	!	!	!	!	!	!	!	!	!	!	!	!	!
2d\	6	.	2d\	.	.	.	.	2d\	nam	.	2.b-\	Nie-	.	.	.	.	.	.	.	.	2.b-^<\	.	.	.	.	.	.	.	.	.	.	.	.	.
2B-/	.	.	2B-\	.	.	.	.	2B-\	o-	.	.	.	.	.	.	.	.	.	.	.	.	.	.	.	.	.	.	.	.	.	.	.	.	.
.	.	.	.	.	.	.	.	.	.	.	4b-\	-ba-	.	.	.	.	.	.	.	.	4b-\	.	.	.	.	.	.	.	.	.	.	.	.	.
=65	=65	=65	=65	=65	=65	=65	=65	=65	=65	=65	=65	=65	=65	=65	=65	=65	=65	=65	=65	=65	=65	=65	=65	=65	=65	=65	=65	=65	=65	=65	=65	=65	=65	=65
2c/	6	.	2c\	.	.	.	.	2c\	-detch-	.	4a\	-zwróć-	.	1r	.	.	.	.	.	.	4a\	.	.	.	.	.	.	.	.	.	1r	.	1r	.
.	5	.	.	.	.	.	.	.	.	.	4g\	o-	.	.	.	.	.	.	.	.	4g\	.	.	.	.	.	.	.	.	.	.	.	.	.
2A/	6	.	2A\	.	.	.	.	4A\	-nąć	.	4f\	-ko-	.	.	.	.	.	.	.	.	4f\	.	.	.	.	.	.	.	.	.	.	.	.	.
.	5	.	.	.	.	.	.	4A\	w_po-	.	4e-\	na	.	.	.	.	.	.	.	.	4e-\	.	.	.	.	.	.	.	.	.	.	.	.	.
=66	=66	=66	=66	=66	=66	=66	=66	=66	=66	=66	=66	=66	=66	=66	=66	=66	=66	=66	=66	=66	=66	=66	=66	=66	=66	=66	=66	=66	=66	=66	=66	=66	=66	=66
!	!	!	!	!	!	!	!	!	!	!	!LO:LB:g=original	!	!	!LO:LB:g=original	!	!	!	!	!	!	!LO:LB:g=original	!	!	!	!	!	!	!	!	!	!	!	!	!
2B-/	8_ 3	.	2B-\	.	.	.	.	(2B-\	.	.	(2d\	zie-	.	2r	.	.	.	.	.	.	2d\	.	.	.	.	.	.	.	.	.	2r	.	2r	.
4c/	_ 3	.	4c\	.	.	.	.	4c\	-ko-	.	4e-\)	.	.	4r	.	.	.	.	.	.	4e-\	.	.	.	.	.	.	.	.	.	4r	.	4r	.
4d/	_ 3	.	4d\	.	.	.	.	4d\)	.	.	4f\	-mie	.	4b-\	z_gór-	.	.	.	.	.	4f\	.	.	.	.	.	.	.	.	.	4b-\	.	4b-\	f
=67	=67	=67	=67	=67	=67	=67	=67	=67	=67	=67	=67	=67	=67	=67	=67	=67	=67	=67	=67	=67	=67	=67	=67	=67	=67	=67	=67	=67	=67	=67	=67	=67	=67	=67
2e-\	6	.	2e-\	.	00r	.	.	2e-\	.	.	2g\	day	.	2cc\	-ne-	.	00r	.	0r	.	2g\	.	00r	.	00r	.	1r	.	1r	.	2cc\	.	2cc\	.
2d\	6	.	2d\	.	.	.	.	2d\	.	.	4f\	nam	.	2b-\	-go	.	.	.	.	.	2f\	.	.	.	.	.	.	.	.	.	2b-\	.	2b-\	.
.	.	.	.	.	.	.	.	.	.	.	4b-\	o-	.	.	.	.	.	.	.	.	.	.	.	.	.	.	.	.	.	.	.	.	.	.
=68	=68	=68	=68	=68	=68	=68	=68	=68	=68	=68	=68	=68	=68	=68	=68	=68	=68	=68	=68	=68	=68	=68	=68	=68	=68	=68	=68	=68	=68	=68	=68	=68	=68	=68
2c\	6 4	.	2c\	.	.	.	.	2c\	-ju	.	2a\	-detch-	.	2.ff\	Nie-	.	.	.	.	.	2.f\	.	.	.	.	.	1f	.	1cc	.	2.ff\	.	2.ff\	.
2A\	6	.	2A\	.	.	.	.	2A\	w_po-	.	4f\	-nąć	.	.	.	.	.	.	.	.	.	.	.	.	.	.	.	.	.	.	.	.	.	.
.	.	.	.	.	.	.	.	.	.	.	4f\	w_po-	.	4ff\	-ba	.	.	.	.	.	4f\	.	.	.	.	.	.	.	.	.	4ff\	.	4ff\	.
=69	=69	=69	=69	=69	=69	=69	=69	=69	=69	=69	=69	=69	=69	=69	=69	=69	=69	=69	=69	=69	=69	=69	=69	=69	=69	=69	=69	=69	=69	=69	=69	=69	=69	=69
!	!	!	!	!	!	!	!	!	!	!	!	!	!	!	!	!	!	!	!	!	!	!	!	!	!	!	!	!	!	!	!LO:LB:g=original	!	!LO:LB:g=original	!
4B-\	6	.	4B-\	.	.	.	.	2B-\	-ko-	.	2g\	-ko-	.	4een\	-zwróć-	.	.	.	1r	.	2g\	.	.	.	.	.	2r	.	2r	.	4eeX\	.	4eeX\	.
4G\	.	.	4G\	.	.	.	.	.	.	.	.	.	.	4dd\	o-	.	.	.	.	.	.	.	.	.	.	.	.	.	.	.	4dd\	.	4dd\	.
4c\	8	.	4c\	.	.	.	.	2c\	.	.	2en\	.	.	4cc\	-ko-	.	.	.	.	.	2en\	.	.	.	.	.	2cc\	.	2cc\	.	4cc\	.	4cc\	.
4C/	7	.	4C/	.	.	.	.	.	.	.	.	.	.	4b-\	na	.	.	.	.	.	.	.	.	.	.	.	.	.	.	.	4b-\	.	4b-\	.
=70	=70	=70	=70	=70	=70	=70	=70	=70	=70	=70	=70	=70	=70	=70	=70	=70	=70	=70	=70	=70	=70	=70	=70	=70	=70	=70	=70	=70	=70	=70	=70	=70	=70	=70
!	!	!	!	!	!	!	!	!LO:LB:g=original	!	!	!	!	!	!	!	!	!	!	!	!	!	!	!	!	!	!	!	!	!	!	!	!	!	!
2F/	3 1	.	2F/	.	.	.	.	2F/	-ju	.	2f\	-ju	.	2a\	zie-	.	.	.	2r	.	2f\	.	.	.	.	.	2f/	.	2cc\	.	2a\	.	2a\	.
4r	4 2	.	4r	.	.	.	.	4r	.	.	(4g\	w_po-	.	4b-\	.	.	.	.	4r	.	4g\	.	.	.	.	.	2r	.	2r	.	4b-\	.	4b-\	.
*clefC4	*	*	*	*	*	*	*	*	*	*	*	*	*	*	*	*	*	*	*	*	*	*	*	*	*	*	*	*	*	*	*	*	*	*
4F/	5 3	.	4F/	.	.	.	.	4F/	z_gór-	.	4a\)	.	.	4cc\	.	.	.	.	4F/	.	4a\	.	.	.	.	.	.	.	.	.	4cc\	.	4cc\	.
=71	=71	=71	=71	=71	=71	=71	=71	=71	=71	=71	=71	=71	=71	=71	=71	=71	=71	=71	=71	=71	=71	=71	=71	=71	=71	=71	=71	=71	=71	=71	=71	=71	=71	=71
!	!	!	!LO:LB:g=original	!	!	!	!	!	!	!	!LO:LB:g=original	!	!	!LO:LB:g=original	!	!	!	!	!	!	!	!	!	!	!	!	!LO:TX:a:t=1	!	!LO:TX:a:t=1	!	!	!	!	!
2G/	-	.	2G/	.	0r	.	.	2G/	-ne-	.	2b-\	-ko-	.	2b-\	-mie	.	1r	.	2G/	.	2b-\	.	1r	.	1r	.	1r	.	1r	.	2b-\	.	2b-\	.
2F/	7	.	2F/	.	.	.	.	2F/	-go	.	2a\	.	.	(4cc\	day	.	.	.	2F/	.	2a\	.	.	.	.	.	.	.	.	.	2cc\	.	4cc\	.
.	.	.	.	.	.	.	.	.	.	.	.	.	.	4ee-\)	.	.	.	.	.	.	.	.	.	.	.	.	.	.	.	.	.	.	4ee-X\	.
=72	=72	=72	=72	=72	=72	=72	=72	=72	=72	=72	=72	=72	=72	=72	=72	=72	=72	=72	=72	=72	=72	=72	=72	=72	=72	=72	=72	=72	=72	=72	=72	=72	=72	=72
!LO:LB:g=original	!	!	!	!LO:DY:t=rf	!	!	!	!	!	!	!	!	!	!	!	!	!	!	!LO:LB:g=original	!	!	!	!	!	!	!	!	!	!	!	!	!	!	!
2.B-\	.	.	2.B-\	rfz	.	.	.	2.B-\	Nie-	.	2b-\	-ju	.	2dd\	nam	.	1ryy	.	2.B-\	.	2b-\	.	2r	.	2r	.	2r	.	2r	.	2dd\	.	2dd\	.
*	*	*	*	*	*	*	*	*	*	*	*	*	*	*	*	*	*	*	*	*	*	*	*	*	*2\right	*	*	*	*	*	*	*	*	*
.	.	.	.	.	.	.	.	.	.	.	(4d\	w_po-	.	2b-\	o-	.	.	.	.	.	4d\	.	2d/	.	2b-\	.	2d/	.	2b-\	.	2b-\	.	2b-\	.
4B-\	.	.	4B-\	.	.	.	.	4B-\	-ba	.	4e-\)	.	.	.	.	.	.	.	4B-\	.	4e-\	.	.	.	.	.	.	.	.	.	.	.	.	.
=73	=73	=73	=73	=73	=73	=73	=73	=73	=73	=73	=73	=73	=73	=73	=73	=73	=73	=73	=73	=73	=73	=73	=73	=73	=73	=73	=73	=73	=73	=73	=73	=73	=73	=73
*	*	*	*	*	*	*	*	*	*	*	*	*	*	*	*	*	*	*	*	*	*	*	*2\right	*	*	*	*	*	*	*	*	*	*	*
4A/	6_	.	4A/	.	1r	.	.	4A/	zwróc	.	1f	-ko-	.	2cc\	-detch-	.	1ryy	.	4A/	.	[1f	.	2f/	.	2cc\	.	1f	.	1cc	.	2cc\	.	2cc\	.
4G/	.	.	4G/	.	.	.	.	4G/	o-	.	.	.	.	.	.	.	.	.	4G/	.	.	.	.	.	.	.	.	.	.	.	.	.	.	.
4F/	.	.	4F/	.	.	.	.	4F/	-ko-	.	.	.	.	4a\	-nąć	.	.	.	4F/	.	.	.	4f/	.	4cc\	.	.	.	.	.	2a\	.	2a\	.
4E-/	.	.	4E-/	.	.	.	.	4E-/	na	.	.	.	.	4a\	w_po-	.	.	.	4E-/	.	.	.	4f/	.	4cc\	.	.	.	.	.	.	.	.	.
=74	=74	=74	=74	=74	=74	=74	=74	=74	=74	=74	=74	=74	=74	=74	=74	=74	=74	=74	=74	=74	=74	=74	=74	=74	=74	=74	=74	=74	=74	=74	=74	=74	=74	=74
!	!	!	!	!	!	!	!	!	!	!	!	!	!	!	!	!	!LO:LB:g=original	!	!	!	!	!	!	!	!	!	!LO:LB:g=original	!	!	!	!	!	!	!
2D/	6	.	2D/	.	2r	.	.	2D/	zie-	.	1f	.	.	2b-\	-ko-	.	2r	.	2D/	.	2f\]	.	2b-\	.	2dd\	.	2b-\	.	2dd\	.	2b-\	.	2b-\	.
4r	.	.	4r	.	4r	.	.	2B-\	.	.	.	.	.	4cc\	.	.	4r	.	2B-\	.	2f\	.	2r	.	2r	.	2r	.	2r	.	4cc\	.	4cc\	.
*clefF4	*	*	*clefF4	*	*	*	*	*	*	*	*	*	*	*	*	*	*	*	*	*	*	*	*	*	*	*	*	*	*	*	*	*	*	*
4BB-/	3	.	4BB-/	.	4BB-/	z_gór-	.	.	.	.	.	.	.	4dd\	.	.	4BB-/	.	.	.	.	.	.	.	.	.	.	.	.	.	4dd\	.	4dd\	.
=75	=75	=75	=75	=75	=75	=75	=75	=75	=75	=75	=75	=75	=75	=75	=75	=75	=75	=75	=75	=75	=75	=75	=75	=75	=75	=75	=75	=75	=75	=75	=75	=75	=75	=75
!	!	!	!	!	!	!	!	!LO:LB:g=original	!	!	!	!	!	!	!	!	!	!	!	!	!	!	!LO:TX:a:t=12	!	!LO:TX:a:t=12	!	!LO:TX:a:t=4	!	!LO:TX:a:t=4	!	!	!	!	!
2C/	4 3	.	2C/	.	2C/	-ne-	.	2A\	-mie	.	1f	.	.	2ee-\	.	.	2C/	.	2A\	.	2f\	.	00r	.	00r	.	00r	.	00r	.	2ee-\	.	2ee-\	.
2BB-/	8 3	.	2BB-/	.	2BB-/	-go	.	2B-\	day	.	.	.	.	2dd\	-ju	.	2BB-/	.	[2B-\	.	2r	.	.	.	.	.	.	.	.	.	2dd\	.	2dd\	.
=76	=76	=76	=76	=76	=76	=76	=76	=76	=76	=76	=76	=76	=76	=76	=76	=76	=76	=76	=76	=76	=76	=76	=76	=76	=76	=76	=76	=76	=76	=76	=76	=76	=76	=76
!	!	!	!	!LO:DY:t=rf	!LO:LB:g=original	!	!	!	!	!	!	!	!	!	!	!	!	!	!	!	!LO:TX:a:t=4	!	!	!	!	!	!	!	!	!	!	!	!	!
2.F\	n	.	2.F\	rfz	2.F\	nie-	.	2B-\	nam	.	2f\	-ju	.	1cc	day	.	2.F^<\	.	2B-\]	.	00r	.	.	.	.	.	.	.	.	.	[1cc	.	[1cc	.
.	.	.	.	.	.	.	.	(4A\	o-	.	4r	.	.	.	.	.	.	.	4A\	.	.	.	.	.	.	.	.	.	.	.	.	.	.	.
4F\	.	.	4F\	.	4F\	-ba	.	4B-\)	.	.	4a\	w_po-	.	.	.	.	4F\	.	4B-\	.	.	.	.	.	.	.	.	.	.	.	.	.	.	.
=77	=77	=77	=77	=77	=77	=77	=77	=77	=77	=77	=77	=77	=77	=77	=77	=77	=77	=77	=77	=77	=77	=77	=77	=77	=77	=77	=77	=77	=77	=77	=77	=77	=77	=77
!	!	!	!	!	!	!	!	!	!	!	!LO:LB:g=original	!	!	!LO:LB:g=original	!	!	!	!	!	!	!	!	!	!	!	!	!	!	!	!	!	!	!	!
4En\	6_	.	4En\	.	4En/	zwroć	.	1c	-det-	.	4g\	-ko-	.	2cc\	nam	.	4En/	.	[1c	.	.	.	.	.	.	.	.	.	.	.	2cc\]	.	2cc\]	.
4D\	.	.	4D\	.	4D/	o-	.	.	.	.	4f\	.	.	.	.	.	4D/	.	.	.	.	.	.	.	.	.	.	.	.	.	.	.	.	.
4C/	.	.	4C/	.	4C/	-ko-	.	.	.	.	4en\	.	.	(4dd\	o-	.	4C/	.	.	.	.	.	.	.	.	.	.	.	.	.	4dd\	.	4dd\	.
4BB-/	4n 2	.	4BB-/	.	4BB-/	na	.	.	.	.	4d\	.	.	4een\)	.	.	4BB-/	.	.	.	.	.	.	.	.	.	.	.	.	.	4eeX\	.	4eeX\	.
=78	=78	=78	=78	=78	=78	=78	=78	=78	=78	=78	=78	=78	=78	=78	=78	=78	=78	=78	=78	=78	=78	=78	=78	=78	=78	=78	=78	=78	=78	=78	=78	=78	=78	=78
!	!	!	!LO:LB:g=original	!	!	!	!	!	!	!	!	!	!	!	!	!	!	!	!	!	!	!	!	!	!	!	!	!	!	!	!	!	!	!
2AA/	6	.	2AA/	.	2AA/	zie-	.	2c\	-chnąć	.	2c\	-ju	.	2ff\	-detch-	.	2AA/	.	2c\]	.	.	.	.	.	.	.	.	.	.	.	1ff	.	1ff	.
4r	.	.	4r	.	2F\	.	.	2c\	w_po-	.	2r	.	.	4ff\	-nąć	.	2FF/	.	2c\	.	.	.	.	.	.	.	.	.	.	.	.	.	.	.
4F\	.	.	4F\	.	.	.	.	.	.	.	.	.	.	4ff\	w_po-	.	.	.	.	.	.	.	.	.	.	.	.	.	.	.	.	.	.	.
=79	=79	=79	=79	=79	=79	=79	=79	=79	=79	=79	=79	=79	=79	=79	=79	=79	=79	=79	=79	=79	=79	=79	=79	=79	=79	=79	=79	=79	=79	=79	=79	=79	=79	=79
!	!	!	!	!	!	!	!	!	!	!	!LO:TX:a:t=1	!	!	!	!	!	!	!	!	!	!	!	!	!	!	!	!	!	!	!	!	!	!	!
4G\	6	.	4G\	.	2G\	-mie	.	2B-\	-ko-	.	1r	.	.	1ee-X	-ko-	.	2GG/	.	2B-\	.	.	.	00r	.	00r	.	2r	.	2r	.	1ee-X	.	1ee-X	.
4F\	.	.	4F\	.	.	.	.	.	.	.	.	.	.	.	.	.	.	.	.	.	.	.	.	.	.	.	.	.	.	.	.	.	.	.
4G\	_ _	.	4G\	.	2A\	-na-	.	2c\	.	.	.	.	.	.	.	.	2AA/	.	2c\	.	.	.	.	.	.	.	2f/	.	2cc\	.	.	.	.	.
4A\	6 5	.	4A\	.	.	.	.	.	.	.	.	.	.	.	.	.	.	.	.	.	.	.	.	.	.	.	.	.	.	.	.	.	.	.
=80	=80	=80	=80	=80	=80	=80	=80	=80	=80	=80	=80	=80	=80	=80	=80	=80	=80	=80	=80	=80	=80	=80	=80	=80	=80	=80	=80	=80	=80	=80	=80	=80	=80	=80
!LO:LB:g=original	!	!	!	!	!	!	!	!	!	!	!	!	!	!	!	!	!	!	!	!	!	!	!	!	!	!	!	!	!	!	!	!	!	!
2B-\	.	.	2B-\	.	2B-\	-zie-	.	2d\	-ju	.	2r	.	.	2dd\	-ju	.	2BB-/	.	2.d\	.	2r	.	.	.	.	.	2b-\	.	2dd\	.	1dd	.	1dd	.
2D\	6	.	2D\	.	2D\	.	.	2B-\	w_po-	.	4r	.	.	2dd\	w_po-	.	2r	.	.	.	4r	.	.	.	.	.	2r	.	2r	.	.	.	.	.
.	.	.	.	.	.	.	.	.	.	.	4f\	z_gór-	.	.	.	.	.	.	4d\	.	4f\	.	.	.	.	.	.	.	.	.	.	.	.	.
=81	=81	=81	=81	=81	=81	=81	=81	=81	=81	=81	=81	=81	=81	=81	=81	=81	=81	=81	=81	=81	=81	=81	=81	=81	=81	=81	=81	=81	=81	=81	=81	=81	=81	=81
!	!	!	!	!	!	!	!	!LO:LB:g=original	!	!	!	!	!	!	!	!	!	!	!	!	!	!	!	!	!	!	!LO:TX:a:t=6	!	!LO:TX:a:t=6	!	!	!	!	!
2E-\	6	.	(2E-\	.	2E-\	.	.	2.B-\	-ko-	.	2g\	-ne-	.	1cc	-ko-	.	2r	.	2e-\	.	2g\	.	.	.	.	.	00r	.	00r	.	1cc	.	1cc	.
4F\	5	.	4F\)	.	2F\	.	.	.	.	.	2f\	-go	.	.	.	.	4r	.	2c\	.	2f\	.	.	.	.	.	.	.	.	.	.	.	.	.
4F\	.	.	4F\	.	.	.	.	4A\	.	.	.	.	.	.	.	.	4F\	.	.	.	.	.	.	.	.	.	.	.	.	.	.	.	.	.
=82	=82	=82	=82	=82	=82	=82	=82	=82	=82	=82	=82	=82	=82	=82	=82	=82	=82	=82	=82	=82	=82	=82	=82	=82	=82	=82	=82	=82	=82	=82	=82	=82	=82	=82
!	!	!	!	!	!LO:LB:g=original	!	!	!	!	!	!LO:LB:g=original	!	!	!	!	!	!	!	!	!	!	!	!	!	!	!	!	!	!	!	!	!	!	!
2G\	3	.	2G\	.	2G\	-mie	.	2G/	-ju	.	2.b-\	Nie-	.	2b-\	-ju	.	2G\	.	2B-\	.	2.b-^<\	.	.	.	.	.	.	.	.	.	2b-\	.	2b-\	.
2F\	5 3	.	2F\	.	2F\	day	.	2r	.	.	.	.	.	2r	.	.	2F\	.	2c\	.	.	.	.	.	.	.	.	.	.	.	2r	.	2r	.
.	.	.	.	.	.	.	.	.	.	.	4a\	-ba	.	.	.	.	.	.	.	.	4a\	.	.	.	.	.	.	.	.	.	.	.	.	.
=83	=83	=83	=83	=83	=83	=83	=83	=83	=83	=83	=83	=83	=83	=83	=83	=83	=83	=83	=83	=83	=83	=83	=83	=83	=83	=83	=83	=83	=83	=83	=83	=83	=83	=83
!	!	!	!	!LO:DY:b	!	!	!	!LO:TX:a:t=2	!	!	!	!	!	!LO:LB:g=original	!	!	!	!	!	!	!	!	!	!	!	!	!	!	!	!	!LO:LB:g=original	!	!LO:LB:g=original	!
!	!	!	!	!LO:DY:t=rf	!	!	!	!	!	!	!	!	!	!LO:TX:a:t=1	!	!	!	!	!	!	!	!	!	!	!	!	!	!	!	!	!LO:TX:a:t=1	!	!LO:TX:a:t=1	!
2.B-\	.	.	2.B-\	rfz	2.B-\	nam	.	0r	.	.	4g\	zwróć-	.	1r	.	.	2.B-^<\	.	2d\	.	4g\	.	00r	.	00r	.	.	.	.	.	1r	.	1r	.
!	!	!	!	!LO:HP:b	!	!	!	!	!	!	!	!	!	!	!	!	!	!	!	!	!	!	!	!	!	!	!	!	!	!	!	!	!	!
.	.	.	.	>	.	.	.	.	.	.	4f\	o-	.	.	.	.	.	.	.	.	4f\	.	.	.	.	.	.	.	.	.	.	.	.	.
.	.	.	.	.	.	.	.	.	.	.	4e-\	-ko-	.	.	.	.	.	.	2r	.	4e-\	.	.	.	.	.	.	.	.	.	.	.	.	.
4B-\	.	.	4B-\	]	4B-\	o-	.	.	.	.	4d\	-na-	.	.	.	.	4B-\	.	.	.	4d\	.	.	.	.	.	.	.	.	.	.	.	.	.
=84	=84	=84	=84	=84	=84	=84	=84	=84	=84	=84	=84	=84	=84	=84	=84	=84	=84	=84	=84	=84	=84	=84	=84	=84	=84	=84	=84	=84	=84	=84	=84	=84	=84	=84
!	!	!	!	!	!	!	!	!	!	!	!	!	!	!	!	!	!	!	!LO:TX:a:t=1	!	!	!	!	!	!	!	!	!	!	!	!	!	!	!
4A\	6_	.	4A\	.	(4A\	-detch-	.	.	.	.	2c\	zie-	.	2r	.	.	2A\	.	1r	.	2c\	.	.	.	.	.	.	.	.	.	2r	.	2r	.
4G\	.	.	4G\	.	4G\)	.	.	.	.	.	.	.	.	.	.	.	.	.	.	.	.	.	.	.	.	.	.	.	.	.	.	.	.	.
4F\	.	.	4F\	.	2F\	-nąć	.	.	.	.	[2f\	.	.	4r	.	.	2F\	.	.	.	[2f\	.	.	.	.	.	.	.	.	.	4r	.	4r	.
8G\L	x	.	8G\L	.	.	.	.	.	.	.	.	.	.	4cc\	z_gór-	.	.	.	.	.	.	.	.	.	.	.	.	.	.	.	4cc\	.	4cc\	.
8A\J	.	.	8A\J	.	.	.	.	.	.	.	.	.	.	.	.	.	.	.	.	.	.	.	.	.	.	.	.	.	.	.	.	.	.	.
=85	=85	=85	=85	=85	=85	=85	=85	=85	=85	=85	=85	=85	=85	=85	=85	=85	=85	=85	=85	=85	=85	=85	=85	=85	=85	=85	=85	=85	=85	=85	=85	=85	=85	=85
!	!	!	!LO:LB:g=original	!	!	!	!	!	!	!	!	!	!	!	!	!	!	!	!	!	!LO:LB:g=original	!	!	!	!	!	!	!	!	!	!	!	!	!
2B-\	.	.	2B-\	.	2BB-/	day	.	2r	.	.	2f\]	.	.	2dd\	-ne-	.	2BB-/	.	2r	.	2f\]	.	.	.	.	.	0r	.	0r	.	2dd\	.	2dd\	.
4F\	5_	.	4F\	.	4F\	nam	.	4r	.	.	4g\	.	.	2cc\	-go	.	2F\	.	4r	.	4g\	.	.	.	.	.	.	.	.	.	2cc\	.	2cc\	.
4E-\	.	.	4E-\	.	4F\	o-	.	4c\	z_gór-	.	4a\	-mie	.	.	.	.	.	.	4c\	.	4a\	.	.	.	.	.	.	.	.	.	.	.	.	.
=86	=86	=86	=86	=86	=86	=86	=86	=86	=86	=86	=86	=86	=86	=86	=86	=86	=86	=86	=86	=86	=86	=86	=86	=86	=86	=86	=86	=86	=86	=86	=86	=86	=86	=86
!	!	!	!	!	!	!	!	!	!	!	!	!	!	!	!	!	!LO:LB:g=original	!	!	!	!	!	!	!	!	!	!	!	!	!	!	!	!	!
4D\	6	.	4D\	.	2D\	-detch-	.	2d\	-ne-	.	(2b-\	day	.	2.ff\	Nie-	.	2D\	.	2d\	.	2b-\	.	.	.	.	.	.	.	.	.	2.ff\	.	2.ff\	.
8E-\L	.	.	8E-\L	.	.	.	.	.	.	.	.	.	.	.	.	.	.	.	.	.	.	.	.	.	.	.	.	.	.	.	.	.	.	.
8F\J	.	.	8F\J	.	.	.	.	.	.	.	.	.	.	.	.	.	.	.	.	.	.	.	.	.	.	.	.	.	.	.	.	.	.	.
4G\	7 n	.	4G\	.	4G\	-nąć	.	2d\	-go	.	2bn\)	.	.	.	.	.	2GG/	.	2d\	.	2bn\	.	.	.	.	.	.	.	.	.	.	.	.	.
4G\	.	.	4G\	.	4G\	o-	.	.	.	.	.	.	.	4ff\	-ba	.	.	.	.	.	.	.	.	.	.	.	.	.	.	.	4ff\	.	4ff\	.
=87	=87	=87	=87	=87	=87	=87	=87	=87	=87	=87	=87	=87	=87	=87	=87	=87	=87	=87	=87	=87	=87	=87	=87	=87	=87	=87	=87	=87	=87	=87	=87	=87	=87	=87
!LO:LB:g=original	!	!	!	!	!	!	!	!	!	!	!	!	!	!	!	!	!	!	!LO:LB:g=original	!	!	!	!	!	!	!	!	!	!LO:LB:g=original	!	!	!	!	!
4C\	-	.	4C\	.	2C/	-detch-	.	2.c\	Nie-	.	2cc\	nam	.	(4ee-X\	-zwróć-	.	2C/	.	2.c\	.	2cc\	.	2r	.	2r	.	2r	.	2r	.	4ee-\	.	4ee-\	.
8D\L	.	.	8D\L	.	.	.	.	.	.	.	.	.	.	4dd\	.	.	.	.	.	.	.	.	.	.	.	.	.	.	.	.	4dd\	.	4dd\	.
8E-\J	.	.	8E-\J	.	.	.	.	.	.	.	.	.	.	.	.	.	.	.	.	.	.	.	.	.	.	.	.	.	.	.	.	.	.	.
4F\	n	.	4F\	.	4F\	-nąć	.	.	.	.	2a\	o-	.	2cc\)	.	.	2FF/	.	.	.	2a\	.	4F/	.	4f/	.	[2F/	.	[2f/	.	2cc\	.	2cc\	.
4F\	.	.	4F\	.	4F\	w_po-	.	4e-\	-ba	.	.	.	.	.	.	.	.	.	4e-\	.	.	.	4F/	.	4f/	.	.	.	.	.	.	.	.	.
=88	=88	=88	=88	=88	=88	=88	=88	=88	=88	=88	=88	=88	=88	=88	=88	=88	=88	=88	=88	=88	=88	=88	=88	=88	=88	=88	=88	=88	=88	=88	=88	=88	=88	=88
!	!	!	!	!	!LO:LB:g=original	!	!	!LO:LB:g=original	!	!	!LO:LB:g=original	!	!	!	!	!	!	!	!	!	!	!	!LO:LB:g=original	!	!	!	!	!	!	!	!	!	!	!
2FF/	6_ 4	.	2FF/	.	1F	-ko-	.	4d\	zwróć-	.	(4b-\	-detch-	.	2dd\	o-	.	1FF	.	2d\	.	2b-\	.	2F/	.	2f/	.	[1F]	.	[1f]	.	1dd	.	1dd	.
.	_ 3	.	.	.	.	.	.	4c\	o-	.	4a\)	.	.	.	.	.	.	.	.	.	.	.	.	.	.	.	.	.	.	.	.	.	.	.
2F\	_ 4	.	2F\	.	.	.	.	4d\	-ko-	.	4g\	-nąć	.	4dd\	-ko-	.	.	.	2en\	.	2g\	.	2r	.	2r	.	.	.	.	.	.	.	.	.
.	_ 2	.	.	.	.	.	.	4en\	-na	.	4g\	-w-	.	4dd\	-na-	.	.	.	.	.	.	.	.	.	.	.	.	.	.	.	.	.	.	.
=89	=89	=89	=89	=89	=89	=89	=89	=89	=89	=89	=89	=89	=89	=89	=89	=89	=89	=89	=89	=89	=89	=89	=89	=89	=89	=89	=89	=89	=89	=89	=89	=89	=89	=89
!LO:TX:b:t=Ped:	!	!	!	!	!	!	!	!	!	!	!	!	!	!LO:LB:g=original	!	!	!	!	!	!	!	!	!	!	!	!	!	!	!	!	!	!	!	!
[1FF	5 3	.	[1FF^	.	1F	.	.	2.f\	zie-	.	2a\	po-	.	(4cc\	-zie-	.	2r	.	2f\	.	2a\	.	2r	.	2r	.	[1F]	.	[1f]	.	4cc\	.	4cc\	.
.	.	.	.	.	.	.	.	.	.	.	.	.	.	4b-\)	.	.	.	.	.	.	.	.	.	.	.	.	.	.	.	.	4b-\	.	4b-\	.
.	.	.	.	.	.	.	.	.	.	.	2f\	-ko-	.	4a\	-mie	.	2FF/	.	4r	.	2f\	.	4F/	.	4f/	.	.	.	.	.	2a\	.	2a\	.
.	.	.	.	.	.	.	.	4c\	-mie	.	.	.	.	4a\	-na-	.	.	.	4c\	.	.	.	4F/	.	4f/	.	.	.	.	.	.	.	.	.
=90	=90	=90	=90	=90	=90	=90	=90	=90	=90	=90	=90	=90	=90	=90	=90	=90	=90	=90	=90	=90	=90	=90	=90	=90	=90	=90	=90	=90	=90	=90	=90	=90	=90	=90
2FF/]	9 4	.	2FF/]	.	1F	.	.	4B-/	-zwróć-	.	2g\	-ju	.	2.b-\	-zie-	.	1FF	.	2B-\	.	2g\	.	2F/	.	2f/	.	[1F]	.	[1f]	.	1b-	.	1b-	.
.	.	.	.	.	.	.	.	4G/	o-	.	.	.	.	.	.	.	.	.	.	.	.	.	.	.	.	.	.	.	.	.	.	.	.	.
2F\	7 _	.	2F\	.	.	.	.	4A/	-ko-	.	2en\	w_po-	.	.	.	.	.	.	2G\	.	2en\	.	2r	.	2r	.	.	.	.	.	.	.	.	.
.	.	.	.	.	.	.	.	4B-/	-na-	.	.	.	.	4b-\	-mie	.	.	.	.	.	.	.	.	.	.	.	.	.	.	.	.	.	.	.
=91	=91	=91	=91	=91	=91	=91	=91	=91	=91	=91	=91	=91	=91	=91	=91	=91	=91	=91	=91	=91	=91	=91	=91	=91	=91	=91	=91	=91	=91	=91	=91	=91	=91	=91
!	!	!	!LO:LB:g=original	!	!	!	!	!	!	!	!	!	!	!	!	!	!	!	!	!	!	!	!	!	!LO:LB:g=original	!	!	!	!	!	!	!	!	!
1FF	3	.	[1FF^	.	1F	.	.	2.c\	-zie-	.	1f	-ko-	.	(4a\	day	.	2r	.	2A\	.	1f	.	2r	.	2r	.	[1F]	.	[1f]	.	4a/	.	4a/	.
.	.	.	.	.	.	.	.	.	.	.	.	.	.	4g\)	.	.	.	.	.	.	.	.	.	.	.	.	.	.	.	.	4g/	.	4g/	.
.	.	.	.	.	.	.	.	.	.	.	.	.	.	4f/	nam	.	2FF/	.	4r	.	.	.	4F/	.	4f/	.	.	.	.	.	2f/	.	2f/	.
.	.	.	.	.	.	.	.	4A\	-mie	.	.	.	.	4f/	o-	.	.	.	4A\	.	.	.	4F/	.	4f/	.	.	.	.	.	.	.	.	.
=92	=92	=92	=92	=92	=92	=92	=92	=92	=92	=92	=92	=92	=92	=92	=92	=92	=92	=92	=92	=92	=92	=92	=92	=92	=92	=92	=92	=92	=92	=92	=92	=92	=92	=92
2FF/	7_ 2	.	2FF/]	.	1F	.	.	(4B-\	day	.	2e-X\	-ju	.	(4g\	-detch-	.	[1FF	.	4B-\	.	2e-X\	.	[1F	.	[1f	.	[1F]	.	[1f]	.	2e-/	.	4g\	.
.	_ 3	.	.	.	.	.	.	4c\)	.	.	.	.	.	4a\)	.	.	.	.	4c\	.	.	.	.	.	.	.	.	.	.	.	.	.	4a\	.
2F\	8 6 4_	.	2F\	.	.	.	.	4d\	nam	.	(4f\	w_po-	.	4b-\	-nąc-	.	.	.	4d\	.	4f\	.	.	.	.	.	.	.	.	.	4d/	.	[2b-\	.
.	9 7 _	.	.	.	.	.	.	4e-\	o-	.	4g\)	.	.	4b-\	w_po-	.	.	.	4e-\	.	4g\	.	.	.	.	.	.	.	.	.	4e-/	.	.	.
=93	=93	=93	=93	=93	=93	=93	=93	=93	=93	=93	=93	=93	=93	=93	=93	=93	=93	=93	=93	=93	=93	=93	=93	=93	=93	=93	=93	=93	=93	=93	=93	=93	=93	=93
!	!	!	!	!	!	!	!	!LO:LB:g=original	!	!	!	!	!	!LO:LB:g=original	!	!	!	!	!	!	!	!	!	!	!	!	!	!	!	!	!	!	!	!
1FF	5_ 4	.	1FF	.	1F	.	.	2c\	-det-	.	1f	-ko-	.	2b-\	-ko-	.	1FF]	.	1c	.	[1f	.	2F/]	.	2f/]	.	2F/]	.	2f/]	.	2f/	.	2b-\]	.
.	_ 3_	.	.	.	.	.	.	4f\	-chnąć	.	.	.	.	2a\	.	.	.	.	.	.	.	.	2F/	.	2f/	.	2f/	.	2cc\	.	2e-/	.	2a\	.
.	7	.	.	.	.	.	.	4e-\	w_po-	.	.	.	.	.	.	.	.	.	.	.	.	.	.	.	.	.	.	.	.	.	.	.	.	.
=94	=94	=94	=94	=94	=94	=94	=94	=94	=94	=94	=94	=94	=94	=94	=94	=94	=94	=94	=94	=94	=94	=94	=94	=94	=94	=94	=94	=94	=94	=94	=94	=94	=94	=94
!LO:PB:g=original	!	!	!	!	!	!	!	!	!	!	!	!	!	!	!	!	!	!	!	!	!	!	!	!	!	!	!	!	!	!	!LO:LB:g=original	!	!	!
4BB-/	10_	.	4BB-/	.	2B-\	-ju	.	2d\	-ko-	.	2f\	-ju	.	2b-\	-ju	.	2BB-/	.	2d\	.	2f\]	.	2B-/	.	2f/	.	2d/	.	2b-\	.	2d/	.	2b-\	.
8D/L	.	.	8D/L	.	.	.	.	.	.	.	.	.	.	.	.	.	.	.	.	.	.	.	.	.	.	.	.	.	.	.	.	.	.	.
8F/J	.	.	8F/J	.	.	.	.	.	.	.	.	.	.	.	.	.	.	.	.	.	.	.	.	.	.	.	.	.	.	.	.	.	.	.
4B-\	X	.	4B-\	.	2BB-/	w_po-	.	4d\	-ju	.	2f\	w_po-	.	2b-\	w_po-	.	2r	.	2r	.	2r	.	2r	.	2r	.	2r	.	2r	.	2r	.	2r	.
4BB-/	.	.	4BB-/	.	.	.	.	4d\	w_po-	.	.	.	.	.	.	.	.	.	.	.	.	.	.	.	.	.	.	.	.	.	.	.	.	.
=95	=95	=95	=95	=95	=95	=95	=95	=95	=95	=95	=95	=95	=95	=95	=95	=95	=95	=95	=95	=95	=95	=95	=95	=95	=95	=95	=95	=95	=95	=95	=95	=95	=95	=95
!	!	!	!	!	!LO:LB:g=original	!	!	!	!	!	!LO:LB:g=original	!	!	!	!	!	!	!	!	!	!	!	!	!	!	!	!	!	!	!	!	!	!	!
1E-;	.	.	1E-;	.	1E-;	-ko-	.	1e-;	-ko-	.	1g;	-ko-	.	1b-;	-ko-	.	1r;	.	1r;	.	1r;	.	1r;	.	1r;	.	1r;	.	1r;	.	1r;	.	1r;	.
=96	=96	=96	=96	=96	=96	=96	=96	=96	=96	=96	=96	=96	=96	=96	=96	=96	=96	=96	=96	=96	=96	=96	=96	=96	=96	=96	=96	=96	=96	=96	=96	=96	=96	=96
!LO:TX:a:t=Fine	!	!	!	!	!LO:TX:a:t=Fine	!	!	!LO:TX:a:t=Finis	!	!	!LO:TX:a:t=Fine	!	!	!LO:TX:a:t=Fine	!	!	!	!	!	!	!	!	!	!	!LO:TX:a:t=problem: 1 pod klamrą łukową	!	!LO:TX:a:t=Fine	!	!LO:TX:a:t=Fine	!	!LO:TX:a:t=Fine	!	!LO:TX:a:t=Fine	!
!LO:N:vis=0	!	!	!LO:N:vis=0	!	!LO:N:vis=0	!	!	!LO:N:vis=0	!	!	!LO:N:vis=0	!	!	!LO:N:vis=0	!	!	!LO:TX:a:t=Fine	!	!LO:TX:a:t=Fine	!	!LO:TX:a:t=Fine	!	!LO:TX:a:t=Fine	!	!LO:TX:a:t=Fine	!	!	!	!	!	!	!	!	!
1BB-	.	.	1BB-	.	1BB-	-ju	.	1d	-ju	.	1f	-ju	.	1b-	-ju.	.	1r	.	1r	.	1r	.	1r	.	1r;	.	1r	.	1r	.	1r	.	1r	.
==	==	==	==	==	==	==	==	==	==	==	==	==	==	==	==	==	==	==	==	==	==	==	==	==	==	==	==	==	==	==	==	==	==	==
*-	*-	*-	*-	*-	*-	*-	*-	*-	*-	*-	*-	*-	*-	*-	*-	*-	*-	*-	*-	*-	*-	*-	*-	*-	*-	*-	*-	*-	*-	*-	*-	*-	*-	*-
!!!system-decoration: [g1][g2][g3](g4){g5}
!!!RDF**kern: >= above
!!!RDF**kern: <= below
!!!RDF**dyman: p=po
!!!RDF**dynam: f=fo
!!!ENC: Anna Matuszewska
!!!END: 2020-05-04
